!!!!SEGMENT: pl-cz--d-ii-40--006_elsner-jozef--requiem-in-c-op-42-sanctus.krn
!!!cenid: 18xx:35
!!!COM: Elsner, Józef
!!!COM-rismid: pe30000957
!!!CDT: 1769/06/01-1854/04/18
!!!CNT: Polish
!!!OPR: Requiem in C op. 42
!!!OTL: Sanctus
!!!OMV: 006
!!!PDT:
!!!AGN: Sacred; Requiem
!!!SMS-siglum: PL-CZ
!!!SMS-shelfmark: D II-40
!!!SMS-shelfwork: 001-006 M
!!!NIFC-rismid:
!!!URL-scan: http://repozytorium.nifc.pl/skany/pl-cz-nut--dii-40
!!!ONB-nifc:
!!!key:
**kern	**dynam	**kern	**kern	**kern	**dynam	**kern	**kern	**kern	**dynam	**kern	**dynam	**kern	**dynam	**kern	**text	**dynam	**kern	**text	**dynam	**kern	**text	**dynam
*part12	*part12	*part11	*part10	*part9	*part9	*part8	*part7	*part6	*part6	*part5	*part5	*part4	*part4	*part3	*part3	*part3	*part2	*part2	*part2	*part1	*part1	*part1
*staff12	*	*staff11	*staff10	*staff9	*	*staff8	*staff7	*staff6	*	*staff5	*	*staff4	*	*staff3	*staff3	*	*staff2	*staff2	*	*staff1	*staff1	*
*Iempty	*	*Itimpa	*Iclars	*Icor	*	*Iempty	*Itromp	*Iempty	*	*Icello&Ifagot	*	*Icello&Ifagot	*	*Ibass	*	*	*Itenor	*	*	*Itenor	*	*
*I"Bassi	*	*I"Tympani	*I"Clar. in C.	*I"Corn. in F.	*	*I"3.	*I"Tromb. 2.	*I"1.	*	*I"Violonc.2o con. Fagotto.	*	*I"Violonc.1mo con. Fagotto.	*	*I"Basso	*	*	*I"Tenore II	*	*	*I"Tenore I	*	*
*I'Cb	*	*I'Timp	*I'Clni	*I'cor	*	*I'Tbn III	*I'Tbn II	*I'Tbn I	*	*I'Vc II con Fg	*	*I'Vc I con. Fg	*	*I'B	*	*	*I'T II	*	*	*I'T I	*	*
*clefF4	*	*clefF4	*clefG2	*clefG2	*	*clefF4	*clefC4	*clefC4	*	*clefF4	*	*clefC4	*	*clefF4	*	*	*clefC4	*	*	*clefC4	*	*
*	*	*	*	*ITrd4c7	*	*	*	*	*	*	*	*	*	*	*	*	*	*	*	*	*	*
*k[]	*	*k[]	*k[]	*k[]	*	*k[]	*k[]	*k[]	*	*k[]	*	*k[]	*	*k[]	*	*	*k[]	*	*	*k[]	*	*
*C:	*	*C:	*C:	*C:	*	*C:	*C:	*C:	*	*C:	*	*C:	*	*C:	*	*	*C:	*	*	*C:	*	*
*M3/4	*	*M3/4	*M3/4	*M3/4	*	*M3/4	*M3/4	*M3/4	*	*M3/4	*	*M3/4	*	*M3/4	*	*	*M3/4	*	*	*M3/4	*	*
=1	=1	=1	=1	=1	=1	=1	=1	=1	=1	=1	=1	=1	=1	=1	=1	=1	=1	=1	=1	=1	=1	=1
!	!	!	!	!	!	!	!	!	!	!	!	!	!	!	!	!	!	!	!	!LO:TX:a:Bi:t=Andante	!	!
!	!	!	!	!	!	!	!	!	!	!	!	!	!	!	!	!	!	!	!	!LO:TX:a:Bi:t=Sanctus	!	!
*	*	*tremolo	*	*	*	*	*	*	*	*	*	*	*	*	*	*	*	*	*	*	*	*
2.C/	.	16C/LL	2.c/ 2.cc/	2.e\ 2.g\	.	2.C/^>	2.E/	2.G/^>	.	2.E\^	.	2.G\^ 2.c\	.	2C/	San-	.	2E/	San-	.	(>4.c\	San-	.
.	.	16C/	.	.	.	.	.	.	.	.	.	.	.	.	.	.	.	.	.	.	.	.
.	.	16C/	.	.	.	.	.	.	.	.	.	.	.	.	.	.	.	.	.	.	.	.
.	.	16C/	.	.	.	.	.	.	.	.	.	.	.	.	.	.	.	.	.	.	.	.
.	.	16C/	.	.	.	.	.	.	.	.	.	.	.	.	.	.	.	.	.	.	.	.
.	.	16C/	.	.	.	.	.	.	.	.	.	.	.	.	.	.	.	.	.	.	.	.
.	.	16C/	.	.	.	.	.	.	.	.	.	.	.	.	.	.	.	.	.	8G/)	.	.
.	.	16C/	.	.	.	.	.	.	.	.	.	.	.	.	.	.	.	.	.	.	.	.
.	.	16C/	.	.	.	.	.	.	.	.	.	.	.	4C/	-ctus	.	4E/	-ctus	.	4G/	-ctus	.
.	.	16C/	.	.	.	.	.	.	.	.	.	.	.	.	.	.	.	.	.	.	.	.
.	.	16C/	.	.	.	.	.	.	.	.	.	.	.	.	.	.	.	.	.	.	.	.
.	.	16C/JJ	.	.	.	.	.	.	.	.	.	.	.	.	.	.	.	.	.	.	.	.
=2	=2	=2	=2	=2	=2	=2	=2	=2	=2	=2	=2	=2	=2	=2	=2	=2	=2	=2	=2	=2	=2	=2
2.C/	.	16C/LL	2.r	2.f\ 2.a\	.	2.C/^>	2.F/	2.A\^	.	2.F\^	.	2.F\^ 2.d\	.	2C/	San-	.	2F/	San-	.	(>4.d\	San-	.
.	.	16C/	.	.	.	.	.	.	.	.	.	.	.	.	.	.	.	.	.	.	.	.
.	.	16C/	.	.	.	.	.	.	.	.	.	.	.	.	.	.	.	.	.	.	.	.
.	.	16C/	.	.	.	.	.	.	.	.	.	.	.	.	.	.	.	.	.	.	.	.
.	.	16C/	.	.	.	.	.	.	.	.	.	.	.	.	.	.	.	.	.	.	.	.
.	.	16C/	.	.	.	.	.	.	.	.	.	.	.	.	.	.	.	.	.	.	.	.
.	.	16C/	.	.	.	.	.	.	.	.	.	.	.	.	.	.	.	.	.	8A\)	.	.
.	.	16C/	.	.	.	.	.	.	.	.	.	.	.	.	.	.	.	.	.	.	.	.
.	.	16C/	.	.	.	.	.	.	.	.	.	.	.	4C/	-ctus	.	4F/	-ctus	.	4A\	-ctus	.
.	.	16C/	.	.	.	.	.	.	.	.	.	.	.	.	.	.	.	.	.	.	.	.
.	.	16C/	.	.	.	.	.	.	.	.	.	.	.	.	.	.	.	.	.	.	.	.
.	.	16C/JJ	.	.	.	.	.	.	.	.	.	.	.	.	.	.	.	.	.	.	.	.
=3	=3	=3	=3	=3	=3	=3	=3	=3	=3	=3	=3	=3	=3	=3	=3	=3	=3	=3	=3	=3	=3	=3
*	*	*	*	*^	*	*	*	*	*	*	*	*	*	*	*	*	*	*	*	*	*	*
2C/	.	16GG/LL	2g\ 2dd\	2g/	2f\	.	2BB/^>	2F/	2G/	.	2F\^	.	2F\ 2d\	.	2BB/	San-	.	2F/	San-	.	(>4.d\	San-	.
.	.	16GG/	.	.	.	.	.	.	.	.	.	.	.	.	.	.	.	.	.	.	.	.	.
.	.	16GG/	.	.	.	.	.	.	.	.	.	.	.	.	.	.	.	.	.	.	.	.	.
.	.	16GG/	.	.	.	.	.	.	.	.	.	.	.	.	.	.	.	.	.	.	.	.	.
.	.	16GG/	.	.	.	.	.	.	.	.	.	.	.	.	.	.	.	.	.	.	.	.	.
.	.	16GG/	.	.	.	.	.	.	.	.	.	.	.	.	.	.	.	.	.	.	.	.	.
.	.	16GG/	.	.	.	.	.	.	.	.	.	.	.	.	.	.	.	.	.	.	8G/)	.	.
.	.	16GG/JJ	.	.	.	.	.	.	.	.	.	.	.	.	.	.	.	.	.	.	.	.	.
*	*	*	*	*v	*v	*	*	*	*	*	*	*	*	*	*	*	*	*	*	*	*	*	*
4C/;	.	4C/;	4e\; 4cc\	4c\; 4g\	.	4C/;	4E/;	4G/;	.	4E\;	.	4E\; 4c\	.	4C/;	-ctus	.	4E/;	-ctus	.	4G/;	-ctus	.
=4	=4	=4	=4	=4	=4	=4	=4	=4	=4	=4	=4	=4	=4	=4	=4	=4	=4	=4	=4	=4	=4	=4
4.AA/	.	16C/LL	4.e/ 4.cc/	4.c/	.	2.AA/	2.E/	2.c\	.	4.c\	.	4.e\	.	4.AA/	Do-	.	4.c\	Do-	.	4.e\	Do-	.
.	.	16C/	.	.	.	.	.	.	.	.	.	.	.	.	.	.	.	.	.	.	.	.
.	.	16C/	.	.	.	.	.	.	.	.	.	.	.	.	.	.	.	.	.	.	.	.
.	.	16C/	.	.	.	.	.	.	.	.	.	.	.	.	.	.	.	.	.	.	.	.
.	.	16C/	.	.	.	.	.	.	.	.	.	.	.	.	.	.	.	.	.	.	.	.
.	.	16C/	.	.	.	.	.	.	.	.	.	.	.	.	.	.	.	.	.	.	.	.
8A\	.	16C/	8e/ 8cc/	8c/	.	.	.	.	.	8c\	.	8e\	.	8A\	-mi-	.	8c\	-mi-	.	8e\	-mi-	.
.	.	16C/JJ	.	.	.	.	.	.	.	.	.	.	.	.	.	.	.	.	.	.	.	.
4A\	.	4C/	4e/ 4cc/	4c/	.	.	.	.	.	4c\	.	4e\	.	4A\	-nus	.	4c\	-nus	.	4e\	-nus	.
=5	=5	=5	=5	=5	=5	=5	=5	=5	=5	=5	=5	=5	=5	=5	=5	=5	=5	=5	=5	=5	=5	=5
2A\	.	2.r	2.r	2.c/	.	2.r	2.r	2.r	.	2.c\	.	2f\	.	2A\	De-	.	2c\	De-	.	2f\	De-	.
4G\	.	.	.	.	.	.	.	.	.	.	.	4e\	.	4G\	-us	.	4c\	-us	.	4e\	-us	.
=6	=6	=6	=6	=6	=6	=6	=6	=6	=6	=6	=6	=6	=6	=6	=6	=6	=6	=6	=6	=6	=6	=6
2F\	.	2.r	2.r	2A/	.	2.r	2.r	2.r	.	2.c\	.	2d\	.	2F\	Sa-	.	2c\	Sa-	.	2d\	Sa-	.
4F#X\	.	.	.	4r	.	.	.	.	.	.	.	4d\	.	4F#X\	-ba-	.	4c\	-ba-	.	4d\	-ba-	.
=7	=7	=7	=7	=7	=7	=7	=7	=7	=7	=7	=7	=7	=7	=7	=7	=7	=7	=7	=7	=7	=7	=7
2.G\	.	2.r	2.r	2.r	.	2.r	2.r	2.r	.	2.B\	.	2.d\	.	2.G\	-oth	.	2.B\	-oth	.	2.d\	-oth	.
=8	=8	=8	=8	=8	=8	=8	=8	=8	=8	=8	=8	=8	=8	=8	=8	=8	=8	=8	=8	=8	=8	=8
2.G\	.	16GG/LL	2.G/^> 2.g/	2.g\	.	2.G\	2.B\	2.d\	.	2.B\	.	2.G\^ 2.d\	.	(>4.G\	San-	.	2B\	San-	.	2d\^	San-	.
.	.	16GG/	.	.	.	.	.	.	.	.	.	.	.	.	.	.	.	.	.	.	.	.
.	.	16GG/	.	.	.	.	.	.	.	.	.	.	.	.	.	.	.	.	.	.	.	.
.	.	16GG/	.	.	.	.	.	.	.	.	.	.	.	.	.	.	.	.	.	.	.	.
.	.	16GG/	.	.	.	.	.	.	.	.	.	.	.	.	.	.	.	.	.	.	.	.
.	.	16GG/	.	.	.	.	.	.	.	.	.	.	.	.	.	.	.	.	.	.	.	.
.	.	16GG/	.	.	.	.	.	.	.	.	.	.	.	8GG/)	.	.	.	.	.	.	.	.
.	.	16GG/	.	.	.	.	.	.	.	.	.	.	.	.	.	.	.	.	.	.	.	.
.	.	16GG/	.	.	.	.	.	.	.	.	.	.	.	4GG/	-ctus	.	4B\	-ctus	.	4d\	-ctus	.
.	.	16GG/	.	.	.	.	.	.	.	.	.	.	.	.	.	.	.	.	.	.	.	.
.	.	16GG/	.	.	.	.	.	.	.	.	.	.	.	.	.	.	.	.	.	.	.	.
.	.	16GG/JJ	.	.	.	.	.	.	.	.	.	.	.	.	.	.	.	.	.	.	.	.
=9	=9	=9	=9	=9	=9	=9	=9	=9	=9	=9	=9	=9	=9	=9	=9	=9	=9	=9	=9	=9	=9	=9
!LO:N:vis=2	!	!	!	!	!	!	!	!	!	!	!	!	!	!	!	!	!	!	!	!	!	!
2.C/	.	16C/LL	2.G/^> 2.g/	2.g\	.	2.C/	2.c\	2.e\	.	2.c\	.	2.G\^ 2.e\	.	2C/	(San-	.	4.c\	(San-	.	2e\^	(San-	.
.	.	16C/	.	.	.	.	.	.	.	.	.	.	.	.	.	.	.	.	.	.	.	.
.	.	16C/	.	.	.	.	.	.	.	.	.	.	.	.	.	.	.	.	.	.	.	.
.	.	16C/	.	.	.	.	.	.	.	.	.	.	.	.	.	.	.	.	.	.	.	.
.	.	16C/	.	.	.	.	.	.	.	.	.	.	.	.	.	.	.	.	.	.	.	.
.	.	16C/	.	.	.	.	.	.	.	.	.	.	.	.	.	.	.	.	.	.	.	.
.	.	16C/	.	.	.	.	.	.	.	.	.	.	.	.	.	.	8G/	.	.	.	.	.
.	.	16C/	.	.	.	.	.	.	.	.	.	.	.	.	.	.	.	.	.	.	.	.
.	.	16C/	.	.	.	.	.	.	.	.	.	.	.	4C/	-ctus	.	4G/	-ctus	.	(>4e\	-ctus	.
.	.	16C/	.	.	.	.	.	.	.	.	.	.	.	.	.	.	.	.	.	.	.	.
.	.	16C/	.	.	.	.	.	.	.	.	.	.	.	.	.	.	.	.	.	.	.	.
.	.	16C/JJ	.	.	.	.	.	.	.	.	.	.	.	.	.	.	.	.	.	.	.	.
=10	=10	=10	=10	=10	=10	=10	=10	=10	=10	=10	=10	=10	=10	=10	=10	=10	=10	=10	=10	=10	=10	=10
!	!	!	!	!	!	!	!	!	!	!	!	!	!	!	!	!	!	!	!	!LO:TX:a:t=P:akcent pomiędzy nutami:problem	!	!
2.BB/	.	16GG/LL	2.G/^> 2.g/	2.g\	.	2.BB/	2.d\	2.f\	.	2.d\	.	2.G\ 2.f\	.	2BB/	San-	.	2G/	San-	.	4.f\^)	San-	.
.	.	16GG/	.	.	.	.	.	.	.	.	.	.	.	.	.	.	.	.	.	.	.	.
.	.	16GG/	.	.	.	.	.	.	.	.	.	.	.	.	.	.	.	.	.	.	.	.
.	.	16GG/	.	.	.	.	.	.	.	.	.	.	.	.	.	.	.	.	.	.	.	.
.	.	16GG/	.	.	.	.	.	.	.	.	.	.	.	.	.	.	.	.	.	.	.	.
.	.	16GG/	.	.	.	.	.	.	.	.	.	.	.	.	.	.	.	.	.	.	.	.
.	.	16GG/	.	.	.	.	.	.	.	.	.	.	.	.	.	.	.	.	.	8d\	.	.
.	.	16GG/	.	.	.	.	.	.	.	.	.	.	.	.	.	.	.	.	.	.	.	.
.	.	16GG/	.	.	.	.	.	.	.	.	.	.	.	4BB/	-ctus)	.	4G/	-ctus)	.	4d\	-ctus)	.
.	.	16GG/	.	.	.	.	.	.	.	.	.	.	.	.	.	.	.	.	.	.	.	.
.	.	16GG/	.	.	.	.	.	.	.	.	.	.	.	.	.	.	.	.	.	.	.	.
.	.	16GG/JJ	.	.	.	.	.	.	.	.	.	.	.	.	.	.	.	.	.	.	.	.
=11	=11	=11	=11	=11	=11	=11	=11	=11	=11	=11	=11	=11	=11	=11	=11	=11	=11	=11	=11	=11	=11	=11
4.C/	.	16C/LL	4.c/ 4.e/	4.c\ 4.g\	.	2.C/	2.c\	2.e\	.	4.c\	.	4.G\ 4.e\	.	4.C/	Do-	.	4.G/	Do-	.	4.e\	Do-	f
.	.	16C/	.	.	.	.	.	.	.	.	.	.	.	.	.	.	.	.	.	.	.	.
.	.	16C/	.	.	.	.	.	.	.	.	.	.	.	.	.	.	.	.	.	.	.	.
.	.	16C/	.	.	.	.	.	.	.	.	.	.	.	.	.	.	.	.	.	.	.	.
.	.	16C/	.	.	.	.	.	.	.	.	.	.	.	.	.	.	.	.	.	.	.	.
.	.	16C/	.	.	.	.	.	.	.	.	.	.	.	.	.	.	.	.	.	.	.	.
8C/	.	16C/	8c/ 8e/	8c\ 8g\	.	.	.	.	.	8c\	.	8G\ 8e\	.	8C/	-mi-	.	8G/	-mi-	.	8e\	-mi-	.
.	.	16C/JJ	.	.	.	.	.	.	.	.	.	.	.	.	.	.	.	.	.	.	.	.
4C/	.	4C/	4c/ 4e/	4c\ 4g\	.	.	.	.	.	4c\	.	4G\ 4e\	.	4C/	-nus	.	4G/	-nus	.	4e\	-nus	.
=12	=12	=12	=12	=12	=12	=12	=12	=12	=12	=12	=12	=12	=12	=12	=12	=12	=12	=12	=12	=12	=12	=12
2.r	.	2.r	2.r	2.r	.	2.r	2.r	2.r	.	2.r	.	2.r	.	2C/	De-	.	2G/	De-	.	2e\	De-	p
.	.	.	.	.	.	.	.	.	.	.	.	.	.	4D/	-us	.	4F/	-us	.	4d\	-us	.
=13	=13	=13	=13	=13	=13	=13	=13	=13	=13	=13	=13	=13	=13	=13	=13	=13	=13	=13	=13	=13	=13	=13
2.r	.	2.r	2.r	2.r	.	2.r	2.r	2.r	.	2.r	.	2.r	.	2E\	Sa-	.	2A\	Sa-	.	2c\	Sa-	.
.	.	.	.	.	.	.	.	.	.	.	.	.	.	4E\	-ba-	.	4G#X/	-ba-	.	4B\	-ba-	.
=14	=14	=14	=14	=14	=14	=14	=14	=14	=14	=14	=14	=14	=14	=14	=14	=14	=14	=14	=14	=14	=14	=14
!	!	!	!	!	!	!	!	!	!	!	!	!	!	!	!	!	!	!	!	!LO:N:vis=1.	!	!
2.r	.	2.r	2.r	2.r	.	2.r	2.r	2.r	.	2.r	.	2.r	.	2.F\	-oth	.	2.A\	-oth	.	2.A\	-oth	.
=15	=15	=15	=15	=15	=15	=15	=15	=15	=15	=15	=15	=15	=15	=15	=15	=15	=15	=15	=15	=15	=15	=15
!LO:N:vis=2	!	!	!	!	!	!	!	!	!	!	!	!	!	!	!	!	!	!	!	!	!	!
2.D\	.	2.r	2.r	2.f\ 2.a\	.	2.D\	2.A\	2.f\	.	2.A\	.	2.f\	.	2.F\	San-	.	2.A\	San-	.	2.f\	San-	.
=16	=16	=16	=16	=16	=16	=16	=16	=16	=16	=16	=16	=16	=16	=16	=16	=16	=16	=16	=16	=16	=16	=16
!	!	!	!	!	!	!LO:N:vis=2	!LO:TX:a:t=P:rozmazana nuta:problem	!	!	!	!	!	!	!	!	!	!	!	!	!	!	!
2.G\	.	16GG/LL	2g\ 2dd\	2.g\	.	2.G\	2B\	2d\	.	2B\	.	2d\	.	2.G\	.	.	2B\	.	.	2d\	.	.
.	.	16GG/	.	.	.	.	.	.	.	.	.	.	.	.	.	.	.	.	.	.	.	.
.	.	16GG/	.	.	.	.	.	.	.	.	.	.	.	.	.	.	.	.	.	.	.	.
.	.	16GG/	.	.	.	.	.	.	.	.	.	.	.	.	.	.	.	.	.	.	.	.
.	.	16GG/	.	.	.	.	.	.	.	.	.	.	.	.	.	.	.	.	.	.	.	.
.	.	16GG/	.	.	.	.	.	.	.	.	.	.	.	.	.	.	.	.	.	.	.	.
.	.	16GG/	.	.	.	.	.	.	.	.	.	.	.	.	.	.	.	.	.	.	.	.
.	.	16GG/	.	.	.	.	.	.	.	.	.	.	.	.	.	.	.	.	.	.	.	.
.	.	16GG/	8.g\L 8.dd\	.	.	.	8.B\L	8.d\L	.	8.B\L	.	8.d\L	.	.	.	.	8.B\L	.	.	8.d\L	.	.
.	.	16GG/	.	.	.	.	.	.	.	.	.	.	.	.	.	.	.	.	.	.	.	.
.	.	16GG/	.	.	.	.	.	.	.	.	.	.	.	.	.	.	.	.	.	.	.	.
.	.	16GG/JJ	16e\Jk 16cc\	.	.	.	16c\Jk	16e\Jk	.	16c\Jk	.	16e\Jk	.	.	.	.	16c\Jk	.	.	16e\Jk	.	.
=17||	=17||	=17||	=17||	=17||	=17||	=17||	=17||	=17||	=17||	=17||	=17||	=17||	=17||	=17||	=17||	=17||	=17||	=17||	=17||	=17||	=17||	=17||
!	!	!	!	!	!	!	!	!	!	!	!	!	!	!	!	!	!	!	!	!LO:TX:a:Bi:t=Allegro mod	!	!
8C/	.	2C/	2e/ 2cc/	2c/ 2g/	.	2C/	2c\	2e\	.	2c\	.	2e\	.	8C/	-ctus	.	2c\	-ctus	.	2e\	-ctus	.
8c\	.	.	.	.	.	.	.	.	.	.	.	.	.	8c\	Ple-	.	.	.	.	.	.	.
4c\	.	.	.	.	.	.	.	.	.	.	.	.	.	4c\	-ni	.	.	.	.	.	.	.
!	!	!	!	!	!	!	!	!	!	!	!	!	!	!	!	!	!	!	!	!LO:TX:a:t=P:dziwny układ niepotrzebnych kasowników:problem	!	!
4c\	.	4r	4r	4r	.	4r	4r	4r	.	4r	.	4r	.	4c\	sunt	.	4r	.	.	4r	.	.
=18	=18	=18	=18	=18	=18	=18	=18	=18	=18	=18	=18	=18	=18	=18	=18	=18	=18	=18	=18	=18	=18	=18
!!LO:PB:g=original
*k[bn en an]	*	*k[bn en an]	*k[bn en an]	*k[bn en an]	*	*k[bn en an]	*k[bn en an]	*k[bn en an]	*	*k[bn en an]	*	*k[bn en an]	*	*k[bn en an]	*	*	*k[bn en an]	*	*	*k[bn en an]	*	*
8c\L	.	2.r	2.r	2.r	.	2.r	2.r	2.r	.	8r	.	2.r	.	8c\L	cae-	.	8r	.	.	2.r	.	.
8A\J	.	.	.	.	.	.	.	.	.	8d\	.	.	.	8A\J	.	.	8d\	Ple-	.	.	.	.
(>4.F#X\	.	.	.	.	.	.	.	.	.	4d\	.	.	.	4.F#X\	-li	.	4d\	-ni	.	.	.	.
.	.	.	.	.	.	.	.	.	.	4d\	.	.	.	.	.	.	4d\	sunt	.	.	.	.
16G\LL	.	.	.	.	.	.	.	.	.	.	.	.	.	16G\LL	et	.	.	.	.	.	.	.
16A\JJ	.	.	.	.	.	.	.	.	.	.	.	.	.	16A\JJ	.	.	.	.	.	.	.	.
=19	=19	=19	=19	=19	=19	=19	=19	=19	=19	=19	=19	=19	=19	=19	=19	=19	=19	=19	=19	=19	=19	=19
8B\L)	.	2.r	2.r	2.r	.	2.r	2.r	2.r	.	8d\L	.	8r	.	8B\L	ter-	.	8d\L	cae-	.	8r	.	.
8G\J	.	.	.	.	.	.	.	.	.	8B\J	.	8e\	.	8G\J	.	.	8B\J	.	.	8e\	Ple-	.
(>4.B\	.	.	.	.	.	.	.	.	.	4.G\	.	4e\	.	4.B\	-ra	.	4.G/	-li	.	4e\	-ni	.
.	.	.	.	.	.	.	.	.	.	.	.	4e\	.	.	.	.	.	.	.	4e\	sunt	.
16A\LL	.	.	.	.	.	.	.	.	.	16A\LL	.	.	.	16A\LL	sunt	.	16A/LL	sunt	.	.	.	.
16G#X\JJ)	.	.	.	.	.	.	.	.	.	16B\JJ	.	.	.	16G#X\JJ	.	.	16B/JJ	.	.	.	.	.
=20	=20	=20	=20	=20	=20	=20	=20	=20	=20	=20	=20	=20	=20	=20	=20	=20	=20	=20	=20	=20	=20	=20
4A\	.	2.r	2.r	2.r	.	2.r	2.r	2.r	.	8c\L	.	8e\L	.	4A\	cae-	.	8c\L	cae-	.	8e\L	cae-	.
.	.	.	.	.	.	.	.	.	.	8A\J	.	8c\J	.	.	.	.	8A\J	.	.	8c\J	.	.
4A\	.	.	.	.	.	.	.	.	.	4.c\	.	(>4.A\	.	4A\	-li	.	4.c\	-li	.	(>4.A\	-li	.
4Gn\	.	.	.	.	.	.	.	.	.	.	.	.	.	4Gn\	et	.	.	.	.	.	.	.
.	.	.	.	.	.	.	.	.	.	16B\LL	.	16B\LL	.	.	.	.	16B\LL	et	.	16B\LL	et	.
.	.	.	.	.	.	.	.	.	.	16A\JJ	.	16c\JJ	.	.	.	.	16A\JJ	.	.	16c\JJ	.	.
=21	=21	=21	=21	=21	=21	=21	=21	=21	=21	=21	=21	=21	=21	=21	=21	=21	=21	=21	=21	=21	=21	=21
4F\	.	2.r	2.r	2.r	.	2.r	2.r	2.r	.	4A\	.	4d\)	.	4F\	ter-	.	4A\	ter-	.	4d\)	ter-	.
4F\	.	.	.	.	.	.	.	.	.	4A\	.	4d\	.	4F\	-ra	.	4A\	-ra	.	4d\	-ra	.
4r	.	.	.	.	.	.	.	.	.	4r	.	4r	.	4r	.	.	4r	.	.	4r	.	.
=22	=22	=22	=22	=22	=22	=22	=22	=22	=22	=22	=22	=22	=22	=22	=22	=22	=22	=22	=22	=22	=22	=22
!	!LO:DY:a	!	!	!	!	!	!	!	!	!	!	!	!LO:DY:a	!	!	!	!	!	!	!	!	!
4.E\	ff	2.r	2.r	2.r	.	2.E\	2.G#X/	2.e\	>	4.G#X\	.	4.e\	ff	4.E\	glo-	.	4.G#X/	glo-	.	4.e\	glo-	ff
8E\	.	.	.	.	.	.	.	.	.	8G#\	.	8e\	.	8E\	-ri-	.	8G#/	-ri-	.	8e\	-ri-	.
4E\	.	.	.	.	.	.	.	.	]	4G#\	.	4e\	.	4E\	-a	.	4G#/	-a	.	4e\	-a	.
=23	=23	=23	=23	=23	=23	=23	=23	=23	=23	=23	=23	=23	=23	=23	=23	=23	=23	=23	=23	=23	=23	=23
4D\	.	2.r	2.r	2.r	.	4D\	4A\	4f\	.	4A\	.	4f\	.	4D\	tu-	.	4A\	tu-	.	4f\	tu-	.
4D\	.	.	.	.	.	4D\	4A\	4f\	.	4A\	.	4f\	.	4D\	-a.	.	4A\	-a.	.	4f\	-a.	.
8r	.	.	.	.	.	4r	4r	4r	.	8r	.	8r	.	8r	.	.	8r	.	.	8r	.	.
!	!LO:DY:a	!	!	!	!	!	!	!	!	!	!	!	!LO:DY:a	!	!	!	!	!	!	!	!	!
8BB/	p	.	.	.	.	.	.	.	.	8Gn\	.	8f\	p	8BB/	o-	.	8Gn/	o-	.	8f\	o-	p
=24	=24	=24	=24	=24	=24	=24	=24	=24	=24	=24	=24	=24	=24	=24	=24	=24	=24	=24	=24	=24	=24	=24
4C/	.	2.r	2.r	2.r	.	2.r	2.r	2.r	.	8G\L	.	8e\L	.	4C/	-san-	.	8G/	-san-	.	8e\	-san-	.
.	.	.	.	.	.	.	.	.	.	8E\J	.	8c\J	.	.	.	.	8E/	-na	.	8c\	-na	.
4C/	.	.	.	.	.	.	.	.	.	4.E\	.	4.G/	.	4C/	-na	.	4.E/	in	.	4.G/	in	.
8C/L	.	.	.	.	.	.	.	.	.	.	.	.	.	8C/	in	.	.	.	.	.	.	.
8E/J	.	.	.	.	.	.	.	.	.	8G\	.	8c\	.	8E\	ex-	.	8G/	ex-	.	8c\	ex-	.
=25	=25	=25	=25	=25	=25	=25	=25	=25	=25	=25	=25	=25	=25	=25	=25	=25	=25	=25	=25	=25	=25	=25
!	!	!	!	!	!	!	!	!	!	!	!LO:HP:a	!	!	!	!	!	!	!	!	!	!	!
8D\L	.	2.r	2.r	2.r	.	2.r	2.r	2.r	.	8F\L	<	8B\	.	8D\	-cel-	.	8F/	-cel-	.	8B\	-cel-	.
8E\J	.	.	.	.	.	.	.	.	.	8G\J	.	8c\	.	8E\	-sis	.	8G/	-sis	.	8c\	-sis	.
4F\	.	.	.	.	.	.	.	.	.	4A\	.	4.d\	.	(>4F\	De-	.	(>4A/	De-	.	(>4.d\	De-	.
4G\	.	.	.	.	.	.	.	.	.	8B\L	.	.	.	4G\)	.	.	8B\L	.	.	.	.	.
.	.	.	.	.	.	.	.	.	.	8c\J	[[	8e\	.	.	.	.	8c\J)	.	.	8e\	.	.
=26	=26	=26	=26	=26	=26	=26	=26	=26	=26	=26	=26	=26	=26	=26	=26	=26	=26	=26	=26	=26	=26	=26
*	*	*	*	*^	*	*	*	*	*	*	*	*	*	*	*	*	*	*	*	*	*	*
*	*	*Xtremolo	*	*	*	*	*	*	*	*	*	*	*	*	*	*	*	*	*	*	*	*	*
2C/	.	8r	8r	4r	4ryy	.	2.r	2.r	2.r	.	2c\	.	2e\	.	2C/	-o	.	2c\	-o	.	2e\)	-o	.
.	.	16C/LL	16e/LL 16cc/	.	.	.	.	.	.	.	.	.	.	.	.	.	.	.	.	.	.	.	.
.	.	16C/JJ	16e/JJ 16cc/	.	.	.	.	.	.	.	.	.	.	.	.	.	.	.	.	.	.	.	.
.	.	8C/L	8e/L 8cc/	8r	8ryy	.	.	.	.	.	.	.	.	.	.	.	.	.	.	.	.	.	.
.	.	8C/	8e/ 8cc/	8g/L	8g\L	.	.	.	.	.	.	.	.	.	.	.	.	.	.	.	.	.	.
8r	.	8GG/	8g/ 8dd/	8g/	8g\	.	.	.	.	.	8r	.	8r	.	8r	.	.	8r	.	.	8r	.	.
8BB/	.	8GG/J	8g/J 8dd/	8g/J	8g\J	.	.	.	.	.	8G\	.	8f\	.	8BB/	o-	.	8G/	o-	.	8f\	o-	.
*	*	*	*	*v	*v	*	*	*	*	*	*	*	*	*	*	*	*	*	*	*	*	*	*
=27	=27	=27	=27	=27	=27	=27	=27	=27	=27	=27	=27	=27	=27	=27	=27	=27	=27	=27	=27	=27	=27	=27
4C/	.	4C/	4cc\ 4ee\	4c\ 4g\	.	2.r	2.r	2.r	.	8G\L	.	8e\L	.	4C/	-san-	.	8G/	-san-	.	8e\	-san-	.
.	.	.	.	.	.	.	.	.	.	8E\J	.	8c\J	.	.	.	.	8E/	-na	.	8c\	-na	.
4C/	.	4r	4r	4r	.	.	.	.	.	4.E\	.	4.G/	.	4C/	-na	.	4.E/	in	.	4.G/	in	.
8C/L	.	4r	4r	4r	.	.	.	.	.	.	.	.	.	8C/	in	.	.	.	.	.	.	.
8E/J	<	.	.	.	.	.	.	.	.	8G\	.	8c\	.	8E\	ex-	.	8G/	ex-	.	8c\	ex-	.
=28	=28	=28	=28	=28	=28	=28	=28	=28	=28	=28	=28	=28	=28	=28	=28	=28	=28	=28	=28	=28	=28	=28
8D\L	.	2.r	2.r	2.r	.	2.r	2.r	2.r	.	8F\L	.	8B\L	.	8D\	-cel-	.	8F/	-cel-	.	8B\	-cel-	<
8E\J	.	.	.	.	.	.	.	.	.	8G\J	.	8c\J	.	8E\	-sis	.	8G/	-sis	.	8c\	-sis	.
!	!	!	!	!	!	!	!	!	!	!	!LO:HP:a	!	!	!	!	!	!	!	!	!	!	!
4F\	.	.	.	.	.	.	.	.	.	4A\	<	4.d\	.	(>4F\	De-	.	4A/	De-	.	4.d\	De-	.
4G\	.	.	.	.	.	.	.	.	.	8B\L	.	.	.	4G\	.	.	(>8B\L	.	.	.	.	.
.	.	.	.	.	.	.	.	.	.	8c\J	.	8e\	.	.	.	.	8c\J)	.	.	8e\	.	[[
=29	=29	=29	=29	=29	=29	=29	=29	=29	=29	=29	=29	=29	=29	=29	=29	=29	=29	=29	=29	=29	=29	=29
2C/	.	8r	8r	2.r	.	2C\	2.c\	2.e\	.	2c\	[	2e\	.	2C/)	-o	.	2c\	-o	.	2e\	-o	[
.	[	16C/LL	16e/LL 16cc/	.	.	.	.	.	.	.	.	.	.	.	.	.	.	.	.	.	.	.
.	.	16C/JJ	16e/JJ 16cc/	.	.	.	.	.	.	.	.	.	.	.	.	.	.	.	.	.	.	.
.	.	8C/L	8e/L 8cc/	.	.	.	.	.	.	.	.	.	.	.	.	.	.	.	.	.	.	.
.	.	8C/	8e/ 8cc/	.	.	.	.	.	.	.	.	.	.	.	.	.	.	.	.	.	.	.
8E\L	f	8C/	8e/ 8cc/	.	.	8E\L	.	.	.	8e\L	.	8e\L	.	8E\	in	.	8e\	in	.	8e\	in	f
8C\J	.	8C/J	8e/J 8cc/	.	.	8C\J	.	.	.	8c\J	.	8c\J	.	8C/	ex-	.	8c\	ex-	.	8c\	ex-	.
=30	=30	=30	=30	=30	=30	=30	=30	=30	=30	=30	=30	=30	=30	=30	=30	=30	=30	=30	=30	=30	=30	=30
*	*	*tremolo	*	*	*	*	*	*	*	*	*	*	*	*	*	*	*	*	*	*	*	*
2G\	.	16GG/LL	2g\ 2dd\	2.g/	.	2G\	2B\	2d\	.	2G\	.	2g\	.	2G\	-cel-	.	2G\ 2g\	-cel-	.	2g\	-cel-	.
.	.	16GG/	.	.	.	.	.	.	.	.	.	.	.	.	.	.	.	.	.	.	.	.
.	.	16GG/	.	.	.	.	.	.	.	.	.	.	.	.	.	.	.	.	.	.	.	.
.	.	16GG/	.	.	.	.	.	.	.	.	.	.	.	.	.	.	.	.	.	.	.	.
.	.	16GG/	.	.	.	.	.	.	.	.	.	.	.	.	.	.	.	.	.	.	.	.
.	.	16GG/	.	.	.	.	.	.	.	.	.	.	.	.	.	.	.	.	.	.	.	.
.	.	16GG/	.	.	.	.	.	.	.	.	.	.	.	.	.	.	.	.	.	.	.	.
.	.	16GG/JJ	.	.	.	.	.	.	.	.	.	.	.	.	.	.	.	.	.	.	.	.
8E\L	.	16C/LL	4cc\ 4ee\	.	.	8E\L	[4c\	4e\	.	8e\L	.	8e\L	.	8E\L	-sis	.	8e\L	-sis	.	8e\L	-sis	.
.	.	16C/	.	.	.	.	.	.	.	.	.	.	.	.	.	.	.	.	.	.	.	.
8C\J	.	16C/	.	.	.	8C\J	.	.	.	[8c\J	.	8c\J	.	8C\J	.	.	[8c\J	.	.	8c\J	.	.
.	.	16C/JJ	.	.	.	.	.	.	.	.	.	.	.	.	.	.	.	.	.	.	.	.
=31	=31	=31	=31	=31	=31	=31	=31	=31	=31	=31	=31	=31	=31	=31	=31	=31	=31	=31	=31	=31	=31	=31
2.GG/	.	16GG/LL	2.g\ 2.dd\	2.g/	.	2.GG/	4c\]	2.d\	.	4c\]	.	2.d\	.	2.G\	De-	.	4c\]	De-	.	2.d\	De-	.
.	.	16GG/	.	.	.	.	.	.	.	.	.	.	.	.	.	.	.	.	.	.	.	.
.	.	16GG/	.	.	.	.	.	.	.	.	.	.	.	.	.	.	.	.	.	.	.	.
.	.	16GG/	.	.	.	.	.	.	.	.	.	.	.	.	.	.	.	.	.	.	.	.
.	.	16GG/	.	.	.	.	8B\L	.	.	8B\L	.	.	.	.	.	.	8B\L	.	.	.	.	.
.	.	16GG/	.	.	.	.	.	.	.	.	.	.	.	.	.	.	.	.	.	.	.	.
.	.	16GG/	.	.	.	.	8A\J	.	.	8A\J	.	.	.	.	.	.	8A\J	.	.	.	.	.
.	.	16GG/	.	.	.	.	.	.	.	.	.	.	.	.	.	.	.	.	.	.	.	.
.	.	16GG/	.	.	.	.	4B\	.	.	4B\	.	.	.	.	.	.	4B\	.	.	.	.	.
.	.	16GG/	.	.	.	.	.	.	.	.	.	.	.	.	.	.	.	.	.	.	.	.
.	.	16GG/	.	.	.	.	.	.	.	.	.	.	.	.	.	.	.	.	.	.	.	.
.	.	16GG/JJ	.	.	.	.	.	.	.	.	.	.	.	.	.	.	.	.	.	.	.	.
=32	=32	=32	=32	=32	=32	=32	=32	=32	=32	=32	=32	=32	=32	=32	=32	=32	=32	=32	=32	=32	=32	=32
2C/	.	2C/	2e/ 2cc/	2c/ 2g/	.	2C/	2c\	2c\	.	2c\	.	2c\	.	2C/	-o	.	2c\	-o	.	2c\	-o	.
4r	.	4r	4r	4r	.	4r	4r	4r	.	4r	.	4r	.	4r	.	.	4r	.	.	4r	.	.
=33||	=33||	=33||	=33||	=33||	=33||	=33||	=33||	=33||	=33||	=33||	=33||	=33||	=33||	=33||	=33||	=33||	=33||	=33||	=33||	=33||	=33||	=33||
!!LO:PB:g=original
!	!	!	!	!	!	!	!	!	!	!	!	!	!	!	!	!	!	!	!	!LO:TX:a:Bi:t=Andantino.	!	!
!	!	!	!	!	!	!	!	!	!	!	!	!	!	!	!	!	!	!	!	!LO:TX:a:Bi:t=Benedictus	!	!
*k[b-]	*	*k[b-]	*k[b-]	*k[b-]	*	*k[b-]	*k[b-]	*k[b-]	*	*k[b-]	*	*k[b-]	*	*k[b-]	*	*	*k[b-]	*	*	*k[b-]	*	*
*d:	*	*d:	*d:	*d:	*	*d:	*d:	*d:	*	*d:	*	*d:	*	*d:	*	*	*d:	*	*	*d:	*	*
*M3/4	*	*M3/4	*M3/4	*M3/4	*	*M3/4	*M3/4	*M3/4	*	*M3/4	*	*M3/4	*	*M3/4	*	*	*M3/4	*	*	*M3/4	*	*
!LO:TX:a:t=P:takty 33-84 - partia niewidoczna w partyturze źródłowej:problem	!	!LO:TX:a:t=P:takty 33-84 - partia niewidoczna w partyturze źródłowej:problem	!LO:TX:a:t=P:takty 33-84 - partia niewidoczna w partyturze źródłowej:problem	!LO:TX:a:t=P:"in F. Corni 1/2" w miejscu nazwy instrumentu:problem	!	!LO:TX:a:t=P:takty 33-84 - partia niewidoczna w partyturze źródłowej:problem	!LO:TX:a:t=P:takty 33-84 - partia niewidoczna w partyturze źródłowej:problem	!LO:TX:a:t=P:takty 33-84 - partia niewidoczna w partyturze źródłowej:problem	!	!LO:TX:a:t=P:takty 33-84 - partia niewidoczna w partyturze źródłowej:problem	!	!LO:TX:a:t=P:takty 33-84 - partia niewidoczna w partyturze źródłowej:problem	!	!LO:TX:a:t=P:"solo" w miejscu nazwy instrumentu:problem	!	!	!LO:TX:a:t=P:"solo" w miejscu nazwy instrumentu:problem	!	!	!LO:TX:a:t=P:"solo" w miejscu nazwy instrumentu:problem	!	!
!	!	!	!	!	!	!	!	!	!	!	!	!	!	!	!	!	!LO:TX:a:Bi:t=dolce	!	!	!	!	!
2.ryy	.	2.ryy	2.ryy	[>2.F/	.	2.ryy	2.ryy	2.ryy	.	2.ryy	.	2.ryy	.	2F\	Be-	.	2A\	Be-	.	2.r	.	.
.	.	.	.	.	.	.	.	.	.	.	.	.	.	8.G\L	-ne-	.	8.B-\L	-ne-	.	.	.	.
.	.	.	.	.	.	.	.	.	.	.	.	.	.	16A\Jk	.	.	16c\Jk	.	.	.	.	.
=34	=34	=34	=34	=34	=34	=34	=34	=34	=34	=34	=34	=34	=34	=34	=34	=34	=34	=34	=34	=34	=34	=34
2.ryy	.	2.ryy	2.ryy	2F/]	.	2.ryy	2.ryy	2.ryy	.	2.ryy	.	2.ryy	.	8.A\L	-di-	.	8.c\L	-di-	.	4r	.	.
.	.	.	.	.	.	.	.	.	.	.	.	.	.	16G\Jk	.	.	16B-\Jk	.	.	.	.	.
.	.	.	.	.	.	.	.	.	.	.	.	.	.	4F\	-ctus	.	4A\	-ctus	.	4c\	Be-	.
.	.	.	.	4r	.	.	.	.	.	.	.	.	.	4F\	qui	.	4A\	qui	.	[4f\	-ne-	.
=35	=35	=35	=35	=35	=35	=35	=35	=35	=35	=35	=35	=35	=35	=35	=35	=35	=35	=35	=35	=35	=35	=35
2.ryy	.	2.ryy	2.ryy	4r	.	2.ryy	2.ryy	2.ryy	.	2.ryy	.	2.ryy	.	4G\	ve-	.	4B-\	ve-	.	8f\L]	-di-	.
.	.	.	.	.	.	.	.	.	.	.	.	.	.	.	.	.	.	.	.	8e\J	.	.
.	.	.	.	4r	.	.	.	.	.	.	.	.	.	4G\	-nit	.	4B-\	-nit	.	4e\	-ctus	.
.	.	.	.	(<8F/L	.	.	.	.	.	.	.	.	.	4F\	in	.	4A\	in	.	4r	.	.
.	.	.	.	8A/J)	.	.	.	.	.	.	.	.	.	.	.	.	.	.	.	.	.	.
=36	=36	=36	=36	=36	=36	=36	=36	=36	=36	=36	=36	=36	=36	=36	=36	=36	=36	=36	=36	=36	=36	=36
2.ryy	.	2.ryy	2.ryy	8c/L	.	2.ryy	2.ryy	2.ryy	.	2.ryy	.	2.ryy	.	(>4.E\	no-	.	(>4.G/	no-	.	2.r	.	.
.	.	.	.	8C/J	.	.	.	.	.	.	.	.	.	.	.	.	.	.	.	.	.	.
.	.	.	.	4C/	.	.	.	.	.	.	.	.	.	.	.	.	.	.	.	.	.	.
.	.	.	.	.	.	.	.	.	.	.	.	.	.	8F\)	.	.	8A\)	.	.	.	.	.
.	.	.	.	4r	.	.	.	.	.	.	.	.	.	8G\	-mi-	.	8B-\	-mi-	.	.	.	.
.	.	.	.	.	.	.	.	.	.	.	.	.	.	8E\	-ne	.	8c\	-ne	.	.	.	.
=37	=37	=37	=37	=37	=37	=37	=37	=37	=37	=37	=37	=37	=37	=37	=37	=37	=37	=37	=37	=37	=37	=37
2.ryy	.	2.ryy	2.ryy	4r	.	2.ryy	2.ryy	2.ryy	.	2.ryy	.	2.ryy	.	8.F\	Do-	.	8.B-\	Do-	.	2.c\	Be-	.
.	.	.	.	.	.	.	.	.	.	.	.	.	.	16F\	-mi-	.	16A\	-mi-	.	.	.	.
.	.	.	.	4r	.	.	.	.	.	.	.	.	.	4F\	-ni	.	4A\	-ni	.	.	.	.
.	.	.	.	8.c/L 8.g/	.	.	.	.	.	.	.	.	.	4r	.	.	4r	.	.	.	.	.
.	.	.	.	16A/Jk 16f/	.	.	.	.	.	.	.	.	.	.	.	.	.	.	.	.	.	.
=38	=38	=38	=38	=38	=38	=38	=38	=38	=38	=38	=38	=38	=38	=38	=38	=38	=38	=38	=38	=38	=38	=38
2.ryy	.	2.ryy	2.ryy	8.A/L 8.f/	.	2.ryy	2.ryy	2.ryy	.	2.ryy	.	2.ryy	.	4r	.	.	4r	.	.	(>4.c\	.	.
.	.	.	.	16c/Jk	.	.	.	.	.	.	.	.	.	.	.	.	.	.	.	.	.	.
.	.	.	.	8F/ 8f/	.	.	.	.	.	.	.	.	.	4F\	Be-	.	4A\	Be-	.	.	.	.
.	.	.	.	8r	.	.	.	.	.	.	.	.	.	.	.	.	.	.	.	8d\)	.	.
.	.	.	.	4r	.	.	.	.	.	.	.	.	.	4A\	-ne-	.	4c\	-ne-	.	8e\L	-ne-	.
.	.	.	.	.	.	.	.	.	.	.	.	.	.	.	.	.	.	.	.	8f\J	.	.
=39	=39	=39	=39	=39	=39	=39	=39	=39	=39	=39	=39	=39	=39	=39	=39	=39	=39	=39	=39	=39	=39	=39
!	!	!	!	!LO:TX:a:t=P:brak początku ligatury:problem	!	!	!	!	!	!	!	!	!	!	!	!	!	!	!	!	!	!
2.ryy	.	2.ryy	2.ryy	[2.f\	.	2.ryy	2.ryy	2.ryy	.	2.ryy	.	2.ryy	.	4B-\	-di-	.	4d\	-di-	.	(>8f\L	-di-	.
.	.	.	.	.	.	.	.	.	.	.	.	.	.	.	.	.	.	.	.	8d\J)	.	.
.	.	.	.	.	.	.	.	.	.	.	.	.	.	4BB-/	-ctus	.	4d\	-ctus	.	(>4.B-\	-ctus	.
.	.	.	.	.	.	.	.	.	.	.	.	.	.	4r	.	.	4r	.	.	.	.	.
.	.	.	.	.	.	.	.	.	.	.	.	.	.	.	.	.	.	.	.	16c\LL	qui	.
.	.	.	.	.	.	.	.	.	.	.	.	.	.	.	.	.	.	.	.	16d\JJ)	.	.
=40	=40	=40	=40	=40	=40	=40	=40	=40	=40	=40	=40	=40	=40	=40	=40	=40	=40	=40	=40	=40	=40	=40
!!LO:LB:g=original
2.ryy	.	2.ryy	2.ryy	2.f\_	.	2.ryy	2.ryy	2.ryy	.	2.ryy	.	2.ryy	.	4r	.	.	4r	.	.	8c\L	ve-	.
.	.	.	.	.	.	.	.	.	.	.	.	.	.	.	.	.	.	.	.	8A\J	.	.
.	.	.	.	.	.	.	.	.	.	.	.	.	.	4F\	Be-	.	4A\	Be-	.	4F/	-nit	.
.	.	.	.	.	.	.	.	.	.	.	.	.	.	4A\	-ne-	.	4c\	-ne-	.	4f\	in	.
=41	=41	=41	=41	=41	=41	=41	=41	=41	=41	=41	=41	=41	=41	=41	=41	=41	=41	=41	=41	=41	=41	=41
2.ryy	.	2.ryy	2.ryy	2f\]	.	2.ryy	2.ryy	2.ryy	.	2.ryy	.	2.ryy	.	4B-\	-di-	.	4d\	-di-	.	(>4.f\	no-	.
.	.	.	.	.	.	.	.	.	.	.	.	.	.	4BB-/	-ctus	.	4.d\	-ctus	.	.	.	.
.	.	.	.	.	.	.	.	.	.	.	.	.	.	.	.	.	.	.	.	8d\)	.	.
.	.	.	.	4r	.	.	.	.	.	.	.	.	.	4BB-/	qui	.	.	.	.	8B-\	-mi-	.
.	.	.	.	.	.	.	.	.	.	.	.	.	.	.	.	.	8B-\	qui	.	8G\	-ne	.
=42	=42	=42	=42	=42	=42	=42	=42	=42	=42	=42	=42	=42	=42	=42	=42	=42	=42	=42	=42	=42	=42	=42
2.ryy	.	2.ryy	2.ryy	2.r	.	2.ryy	2.ryy	2.ryy	.	2.ryy	.	2.ryy	.	2.C/	ve-	.	4A\	ve-	.	(>8F/	Do-	.
.	.	.	.	.	.	.	.	.	.	.	.	.	.	.	.	.	.	.	.	8c\L	.	.
.	.	.	.	.	.	.	.	.	.	.	.	.	.	.	.	.	8B-\L	.	.	8d\	.	.
.	.	.	.	.	.	.	.	.	.	.	.	.	.	.	.	.	8A\	.	.	8c\	.	.
.	.	.	.	.	.	.	.	.	.	.	.	.	.	.	.	.	8G\	.	.	8B-\	.	.
.	.	.	.	.	.	.	.	.	.	.	.	.	.	.	.	.	[8F\J	.	.	8A\J	.	.
=43	=43	=43	=43	=43	=43	=43	=43	=43	=43	=43	=43	=43	=43	=43	=43	=43	=43	=43	=43	=43	=43	=43
2.ryy	.	2.ryy	2.ryy	2.r	.	2.ryy	2.ryy	2.ryy	.	2.ryy	.	2.ryy	.	2.C/	.	.	8F/L]	.	.	4G/)	.	.
.	.	.	.	.	.	.	.	.	.	.	.	.	.	.	.	.	8E/	.	.	.	.	.
.	.	.	.	.	.	.	.	.	.	.	.	.	.	.	.	.	(<8F/	.	.	(>8A\L	.	.
.	.	.	.	.	.	.	.	.	.	.	.	.	.	.	.	.	8G/)	.	.	8B-\J	.	.
.	.	.	.	.	.	.	.	.	.	.	.	.	.	.	.	.	(<8A/	.	.	8c\L	-mi-	.
.	.	.	.	.	.	.	.	.	.	.	.	.	.	.	.	.	8G/J)	.	.	8B-\J)	.	.
=44	=44	=44	=44	=44	=44	=44	=44	=44	=44	=44	=44	=44	=44	=44	=44	=44	=44	=44	=44	=44	=44	=44
2.ryy	.	2.ryy	2.ryy	2.r	.	2.ryy	2.ryy	2.ryy	.	2.ryy	.	2.ryy	.	2D\	-nit	.	2F/	-nit	.	2A\	-ni	.
.	.	.	.	.	.	.	.	.	.	.	.	.	.	4C/	in	.	4F#X/	in	.	4A\^	in	.
=45	=45	=45	=45	=45	=45	=45	=45	=45	=45	=45	=45	=45	=45	=45	=45	=45	=45	=45	=45	=45	=45	=45
2.ryy	.	2.ryy	2.ryy	2.r	.	2.ryy	2.ryy	2.ryy	.	2.ryy	.	2.ryy	.	8.BB-/	no-	.	8.G/	no-	.	8.d\	no-	.
.	.	.	.	.	.	.	.	.	.	.	.	.	.	16BB-/	-mi-	.	16G/	-mi-	.	16d\	-mi-	.
.	.	.	.	.	.	.	.	.	.	.	.	.	.	4BB-/	-ne	.	4G/	-ne	.	4d\	-ne	.
.	.	.	.	.	.	.	.	.	.	.	.	.	.	4BB-/	in	.	4E/	in	.	4G/^>	in	.
=46	=46	=46	=46	=46	=46	=46	=46	=46	=46	=46	=46	=46	=46	=46	=46	=46	=46	=46	=46	=46	=46	=46
2.ryy	.	2.ryy	2.ryy	2.r	.	2.ryy	2.ryy	2.ryy	.	2.ryy	.	2.ryy	.	4.AA/	no-	.	4.F/	no-	.	4.c\	no-	.
.	.	.	.	.	.	.	.	.	.	.	.	.	.	8AA/	-mi-	.	8F/	-mi-	.	8c\	-mi-	.
.	.	.	.	.	.	.	.	.	.	.	.	.	.	4BB-/	-ne	.	4F/	-ne	.	4d\	-ne	.
=47	=47	=47	=47	=47	=47	=47	=47	=47	=47	=47	=47	=47	=47	=47	=47	=47	=47	=47	=47	=47	=47	=47
2.ryy	.	2.ryy	2.ryy	4r	.	2.ryy	2.ryy	2.ryy	.	2.ryy	.	2.ryy	.	2C/	Do-	.	(<4F/	Do-	.	2G/	Do-	.
.	.	.	.	8r	.	.	.	.	.	.	.	.	.	.	.	.	8E/L	.	.	.	.	.
.	.	.	.	16r	.	.	.	.	.	.	.	.	.	.	.	.	8D/J)	.	.	.	.	.
.	.	.	.	16c\ 16g\	.	.	.	.	.	.	.	.	.	.	.	.	.	.	.	.	.	.
.	.	.	.	8.c\L 8.g\	.	.	.	.	.	.	.	.	.	4C/	-mi-	.	4E/	-mi-	.	4G/	-mi-	.
.	.	.	.	16c\Jk 16g\	.	.	.	.	.	.	.	.	.	.	.	.	.	.	.	.	.	.
=48	=48	=48	=48	=48	=48	=48	=48	=48	=48	=48	=48	=48	=48	=48	=48	=48	=48	=48	=48	=48	=48	=48
2.ryy	.	2.ryy	2.ryy	4..A\ 4..f\	.	2.ryy	2.ryy	2.ryy	.	2.ryy	.	2.ryy	.	2F\	-ni	.	2F/	-ni	.	2A\	-ni	.
.	.	.	.	16A\L 16a\	.	.	.	.	.	.	.	.	.	.	.	.	.	.	.	.	.	.
.	.	.	.	8.A\ 8.a\	.	.	.	.	.	.	.	.	.	4r	.	.	4r	.	.	4r	.	.
.	.	.	.	16A\Jk 16a\	.	.	.	.	.	.	.	.	.	.	.	.	.	.	.	.	.	.
=49	=49	=49	=49	=49	=49	=49	=49	=49	=49	=49	=49	=49	=49	=49	=49	=49	=49	=49	=49	=49	=49	=49
2.ryy	.	2.ryy	2.ryy	4A\ 4a\	.	2.ryy	2.ryy	2.ryy	.	2.ryy	.	2.ryy	.	2D\	Be-	f	2F/	Be-	f	2d\	Be-	f
.	.	.	.	4r	.	.	.	.	.	.	.	.	.	.	.	.	.	.	.	.	.	.
.	.	.	.	4r	.	.	.	.	.	.	.	.	.	4C#X/	-ne-	.	4A\	-ne-	.	4e\	-ne-	.
=50	=50	=50	=50	=50	=50	=50	=50	=50	=50	=50	=50	=50	=50	=50	=50	=50	=50	=50	=50	=50	=50	=50
!!LO:LB:g=original
2.ryy	.	2.ryy	2.ryy	2.r	.	2.ryy	2.ryy	2.ryy	.	2.ryy	.	2.ryy	.	8D/L	-di-	.	4A/	-di-	.	8f\L	-di-	.
.	.	.	.	.	.	.	.	.	.	.	.	.	.	8F/J	.	.	.	.	.	8d\J	.	.
.	.	.	.	.	.	.	.	.	.	.	.	.	.	4F\	-ctus	.	4A/	-ctus	.	8d\	-ctus	.
!	!	!	!	!	!	!	!	!	!	!	!	!	!	!	!	!	!	!	!	!LO:TX:a:Bi:t=dolce	!	!
.	.	.	.	.	.	.	.	.	.	.	.	.	.	.	.	.	.	.	.	16f\LL	qui	.
.	.	.	.	.	.	.	.	.	.	.	.	.	.	.	.	.	.	.	.	16e\JJ	.	.
.	.	.	.	.	.	.	.	.	.	.	.	.	.	4r	.	.	4r	.	.	(>16d\LL	.	.
.	.	.	.	.	.	.	.	.	.	.	.	.	.	.	.	.	.	.	.	16c\	.	.
.	.	.	.	.	.	.	.	.	.	.	.	.	.	.	.	.	.	.	.	16Bn\	.	.
.	.	.	.	.	.	.	.	.	.	.	.	.	.	.	.	.	.	.	.	16A\JJ)	.	.
=51	=51	=51	=51	=51	=51	=51	=51	=51	=51	=51	=51	=51	=51	=51	=51	=51	=51	=51	=51	=51	=51	=51
2.ryy	.	2.ryy	2.ryy	2.r	.	2.ryy	2.ryy	2.ryy	.	2.ryy	.	2.ryy	.	4r	.	.	4r	.	.	4G/	ve-	.
.	.	.	.	.	.	.	.	.	.	.	.	.	.	4r	.	.	4r	.	.	4A/	-nit	.
.	.	.	.	.	.	.	.	.	.	.	.	.	.	4D\	in	.	4F/	in	.	4Bn\	in	.
=52	=52	=52	=52	=52	=52	=52	=52	=52	=52	=52	=52	=52	=52	=52	=52	=52	=52	=52	=52	=52	=52	=52
2.ryy	.	2.ryy	2.ryy	2.r	.	2.ryy	2.ryy	2.ryy	.	2.ryy	.	2.ryy	.	4.C/	no-	.	4.E/	no-	.	4.c\	no-	.
.	.	.	.	.	.	.	.	.	.	.	.	.	.	8BBn/	-mi-	.	8G/	-mi-	.	8d\	-mi-	.
.	.	.	.	.	.	.	.	.	.	.	.	.	.	8C/L	-ne	.	4G/	-ne	.	4e\	-ne	.
.	.	.	.	.	.	.	.	.	.	.	.	.	.	16D/L	.	.	.	.	.	.	.	.
.	.	.	.	.	.	.	.	.	.	.	.	.	.	16E/JJ	.	.	.	.	.	.	.	.
=53	=53	=53	=53	=53	=53	=53	=53	=53	=53	=53	=53	=53	=53	=53	=53	=53	=53	=53	=53	=53	=53	=53
2.ryy	.	2.ryy	2.ryy	2.r	.	2.ryy	2.ryy	2.ryy	.	2.ryy	.	2.ryy	.	2F\	Do-	.	2A\	Do-	.	(>4e\	Do-	.
.	.	.	.	.	.	.	.	.	.	.	.	.	.	.	.	.	.	.	.	4d\)	.	.
.	.	.	.	.	.	.	.	.	.	.	.	.	.	4F#X\	-mi-	.	4A\	-mi-	.	4c\	-mi-	.
=54	=54	=54	=54	=54	=54	=54	=54	=54	=54	=54	=54	=54	=54	=54	=54	=54	=54	=54	=54	=54	=54	=54
.	.	.	.	.	.	.	.	.	.	.	.	.	.	.	.	.	.	.	.	8qc/	.	.
2.ryy	.	2.ryy	2.ryy	4r	.	2.ryy	2.ryy	2.ryy	.	2.ryy	.	2.ryy	.	2G\	-ni	.	2G/	-ni	.	2Bn\	-ni	.
.	.	.	.	8.r	.	.	.	.	.	.	.	.	.	.	.	.	.	.	.	.	.	.
*	*	*	*	*^	*	*	*	*	*	*	*	*	*	*	*	*	*	*	*	*	*	*
.	.	.	.	16g/Lk	16g\Lk	.	.	.	.	.	.	.	.	.	.	.	.	.	.	.	.	.	.
.	.	.	.	8.g/	8.g\	.	.	.	.	.	.	.	.	.	4r	.	.	4r	.	.	4r	.	.
.	.	.	.	16g/Jk	16g\Jk	.	.	.	.	.	.	.	.	.	.	.	.	.	.	.	.	.	.
*	*	*	*	*v	*v	*	*	*	*	*	*	*	*	*	*	*	*	*	*	*	*	*	*
=55	=55	=55	=55	=55	=55	=55	=55	=55	=55	=55	=55	=55	=55	=55	=55	=55	=55	=55	=55	=55	=55	=55
2.ryy	.	2.ryy	2.ryy	4g\	.	2.ryy	2.ryy	2.ryy	.	2.ryy	.	2.ryy	.	2C/	Be-	.	2E/	Be-	.	2c\	Be-	.
*	*	*	*	*	*	*	*	*	*	*	*	*	*	*	*	*	*	*	*	*	*	*
.	.	.	.	4r	.	.	.	.	.	.	.	.	.	.	.	.	.	.	.	.	.	.
.	.	.	.	4r	.	.	.	.	.	.	.	.	.	4BBn/	-ne-	.	4G/	-ne-	.	4d\	-ne-	.
=56	=56	=56	=56	=56	=56	=56	=56	=56	=56	=56	=56	=56	=56	=56	=56	=56	=56	=56	=56	=56	=56	=56
2.ryy	.	2.ryy	2.ryy	2.r	.	2.ryy	2.ryy	2.ryy	.	2.ryy	.	2.ryy	.	8C/L	-di-	.	4G/	-di-	.	8e\L	-di-	.
.	.	.	.	.	.	.	.	.	.	.	.	.	.	8E/J	.	.	.	.	.	8c\J	.	.
.	.	.	.	.	.	.	.	.	.	.	.	.	.	4E\	-ctus	.	8G/	-ctus	.	4c\	-ctus	.
.	.	.	.	.	.	.	.	.	.	.	.	.	.	.	.	.	(>16c\LL	qui	.	.	.	.
.	.	.	.	.	.	.	.	.	.	.	.	.	.	.	.	.	16Bn\JJ	.	.	.	.	.
.	.	.	.	.	.	.	.	.	.	.	.	.	.	4r	.	.	16A\LL	.	.	4r	.	.
.	.	.	.	.	.	.	.	.	.	.	.	.	.	.	.	.	16G\	.	.	.	.	.
.	.	.	.	.	.	.	.	.	.	.	.	.	.	.	.	.	16F\)	.	.	.	.	.
.	.	.	.	.	.	.	.	.	.	.	.	.	.	.	.	.	16E\JJ	.	.	.	.	.
=57	=57	=57	=57	=57	=57	=57	=57	=57	=57	=57	=57	=57	=57	=57	=57	=57	=57	=57	=57	=57	=57	=57
2.ryy	.	2.ryy	2.ryy	2.r	.	2.ryy	2.ryy	2.ryy	.	2.ryy	.	2.ryy	.	4r	.	.	4D/	ve-	.	4r	.	.
.	.	.	.	.	.	.	.	.	.	.	.	.	.	4r	.	.	4E/	-nit	.	4r	.	.
.	.	.	.	.	.	.	.	.	.	.	.	.	.	4D\	in	.	4F/	in	.	8A\L	in	.
.	.	.	.	.	.	.	.	.	.	.	.	.	.	.	.	.	.	.	.	8Bn\J	.	.
=58	=58	=58	=58	=58	=58	=58	=58	=58	=58	=58	=58	=58	=58	=58	=58	=58	=58	=58	=58	=58	=58	=58
!!LO:PB:g=original
2.ryy	.	2.ryy	2.ryy	2.r	.	2.ryy	2.ryy	2.ryy	.	2.ryy	.	2.ryy	.	4.C/	no-	.	4.E/	no-	.	2.c\	no-	.
.	.	.	.	.	.	.	.	.	.	.	.	.	.	8D/	-mi-	.	8F/	-mi-	.	.	.	.
.	.	.	.	.	.	.	.	.	.	.	.	.	.	4E\	-ne	.	4G/	-ne	.	.	.	.
=59	=59	=59	=59	=59	=59	=59	=59	=59	=59	=59	=59	=59	=59	=59	=59	=59	=59	=59	=59	=59	=59	=59
2.ryy	.	2.ryy	2.ryy	2.r	.	2.ryy	2.ryy	2.ryy	.	2.ryy	.	2.ryy	.	[2.F\	Do-	.	2.A\	Do-	.	8c\L	.	.
.	.	.	.	.	.	.	.	.	.	.	.	.	.	.	.	.	.	.	.	8A\	.	.
.	.	.	.	.	.	.	.	.	.	.	.	.	.	.	.	.	.	.	.	8f\	.	.
.	.	.	.	.	.	.	.	.	.	.	.	.	.	.	.	.	.	.	.	8e\J	.	.
.	.	.	.	.	.	.	.	.	.	.	.	.	.	.	.	.	.	.	.	8d\L	-mi-	.
.	.	.	.	.	.	.	.	.	.	.	.	.	.	.	.	.	.	.	.	8c\J	.	.
=60	=60	=60	=60	=60	=60	=60	=60	=60	=60	=60	=60	=60	=60	=60	=60	=60	=60	=60	=60	=60	=60	=60
2.ryy	.	2.ryy	2.ryy	2.r	.	2.ryy	2.ryy	2.ryy	.	2.ryy	.	2.ryy	.	2F\]	.	.	2.G/	-mi-	.	4.Bn\	-ne	.
.	.	.	.	.	.	.	.	.	.	.	.	.	.	.	.	.	.	.	.	16c\LL	in	.
.	.	.	.	.	.	.	.	.	.	.	.	.	.	.	.	.	.	.	.	16d\JJ	.	.
.	.	.	.	.	.	.	.	.	.	.	.	.	.	4E\	-mi-	.	.	.	.	8c\L	no-	.
.	.	.	.	.	.	.	.	.	.	.	.	.	.	.	.	.	.	.	.	16d\L	.	.
.	.	.	.	.	.	.	.	.	.	.	.	.	.	.	.	.	.	.	.	16e\JJ	.	.
=61	=61	=61	=61	=61	=61	=61	=61	=61	=61	=61	=61	=61	=61	=61	=61	=61	=61	=61	=61	=61	=61	=61
2.ryy	.	2.ryy	2.ryy	2.r	.	2.ryy	2.ryy	2.ryy	.	2.ryy	.	2.ryy	.	4D\	-ni	.	2G/	-ni	.	4.f\	-mi-	.
.	.	.	.	.	.	.	.	.	.	.	.	.	.	4BBn/	.	.	.	.	.	.	.	.
.	.	.	.	.	.	.	.	.	.	.	.	.	.	.	.	.	.	.	.	8d\	.	.
.	.	.	.	.	.	.	.	.	.	.	.	.	.	8C/L	Do-	.	8G/L	Do-	.	8e\L	-ne	.
.	.	.	.	.	.	.	.	.	.	.	.	.	.	8F\J	.	.	8A/J	.	.	16A\L	.	.
.	.	.	.	.	.	.	.	.	.	.	.	.	.	.	.	.	.	.	.	16d\JJ	.	.
=62	=62	=62	=62	=62	=62	=62	=62	=62	=62	=62	=62	=62	=62	=62	=62	=62	=62	=62	=62	=62	=62	=62
2.ryy	.	2.ryy	2.ryy	4r	.	2.ryy	2.ryy	2.ryy	.	2.ryy	.	2.ryy	.	2E\	.	.	2G/	.	.	2c\	Do-	.
*	*	*	*	*^	*	*	*	*	*	*	*	*	*	*	*	*	*	*	*	*	*	*
.	.	.	.	4g/	4g\	.	.	.	.	.	.	.	.	.	.	.	.	.	.	.	.	.	.
.	.	.	.	4g/	4g\	.	.	.	.	.	.	.	.	.	4BBn/	-mi-	.	4G/	-mi-	.	4d\	-mi-	.
=63	=63	=63	=63	=63	=63	=63	=63	=63	=63	=63	=63	=63	=63	=63	=63	=63	=63	=63	=63	=63	=63	=63	=63
2.ryy	.	2.ryy	2.ryy	2g/	2c\	.	2.ryy	2.ryy	2.ryy	.	2.ryy	.	2.ryy	.	2C/	-ni	.	4.G/	-ni	.	2e\	-ni	.
.	.	.	.	.	.	.	.	.	.	.	.	.	.	.	.	.	.	(>16c\LL	qui	.	.	.	.
.	.	.	.	.	.	.	.	.	.	.	.	.	.	.	.	.	.	16Bn\JJ	.	.	.	.	.
*	*	*	*	*v	*v	*	*	*	*	*	*	*	*	*	*	*	*	*	*	*	*	*	*
.	.	.	.	4r	.	.	.	.	.	.	.	.	.	4r	.	.	16A\LL	.	.	4r	.	.
.	.	.	.	.	.	.	.	.	.	.	.	.	.	.	.	.	16G\	.	.	.	.	.
.	.	.	.	.	.	.	.	.	.	.	.	.	.	.	.	.	16F\	.	.	.	.	.
.	.	.	.	.	.	.	.	.	.	.	.	.	.	.	.	.	16E\JJ)	.	.	.	.	.
=64	=64	=64	=64	=64	=64	=64	=64	=64	=64	=64	=64	=64	=64	=64	=64	=64	=64	=64	=64	=64	=64	=64
2.ryy	.	2.ryy	2.ryy	2.r	.	2.ryy	2.ryy	2.ryy	.	2.ryy	.	2.ryy	.	4r	.	.	4D/	ve-	.	4r	.	.
.	.	.	.	.	.	.	.	.	.	.	.	.	.	4r	.	.	4E/	-nit	.	4r	.	.
.	.	.	.	.	.	.	.	.	.	.	.	.	.	4D\	in	.	4F/	in	.	8A\L	in	.
.	.	.	.	.	.	.	.	.	.	.	.	.	.	.	.	.	.	.	.	8Bn\J	.	.
=65	=65	=65	=65	=65	=65	=65	=65	=65	=65	=65	=65	=65	=65	=65	=65	=65	=65	=65	=65	=65	=65	=65
2.ryy	.	2.ryy	2.ryy	2.r	.	2.ryy	2.ryy	2.ryy	.	2.ryy	.	2.ryy	.	4.C/	no-	.	4.E/	no-	.	2.c\	no-	.
.	.	.	.	.	.	.	.	.	.	.	.	.	.	8D/	-mi-	.	8F/	-mi-	.	.	.	.
.	.	.	.	.	.	.	.	.	.	.	.	.	.	4E\	-ne	.	4G/	-ne	.	.	.	.
=66	=66	=66	=66	=66	=66	=66	=66	=66	=66	=66	=66	=66	=66	=66	=66	=66	=66	=66	=66	=66	=66	=66
2.ryy	.	2.ryy	2.ryy	2.r	.	2.ryy	2.ryy	2.ryy	.	2.ryy	.	2.ryy	.	[2.F\	Do-	.	2.A\	Do-	.	8c\L	.	.
.	.	.	.	.	.	.	.	.	.	.	.	.	.	.	.	.	.	.	.	8A\	.	.
.	.	.	.	.	.	.	.	.	.	.	.	.	.	.	.	.	.	.	.	8f\	.	.
.	.	.	.	.	.	.	.	.	.	.	.	.	.	.	.	.	.	.	.	8e\J	.	.
.	.	.	.	.	.	.	.	.	.	.	.	.	.	.	.	.	.	.	.	8d\L	-mi-	.
.	.	.	.	.	.	.	.	.	.	.	.	.	.	.	.	.	.	.	.	8c\J	.	.
=67	=67	=67	=67	=67	=67	=67	=67	=67	=67	=67	=67	=67	=67	=67	=67	=67	=67	=67	=67	=67	=67	=67
!!LO:LB:g=original
2.ryy	.	2.ryy	2.ryy	2.r	.	2.ryy	2.ryy	2.ryy	.	2.ryy	.	2.ryy	.	2F\]	.	.	2.G/	-mi-	.	4.Bn\	-ne	.
.	.	.	.	.	.	.	.	.	.	.	.	.	.	.	.	.	.	.	.	16c\LL	in	.
.	.	.	.	.	.	.	.	.	.	.	.	.	.	.	.	.	.	.	.	16d\JJ	.	.
.	.	.	.	.	.	.	.	.	.	.	.	.	.	4E\	-mi-	.	.	.	.	8c\L	no-	.
.	.	.	.	.	.	.	.	.	.	.	.	.	.	.	.	.	.	.	.	16d\L	.	.
.	.	.	.	.	.	.	.	.	.	.	.	.	.	.	.	.	.	.	.	16e\JJ	.	.
=68	=68	=68	=68	=68	=68	=68	=68	=68	=68	=68	=68	=68	=68	=68	=68	=68	=68	=68	=68	=68	=68	=68
2.ryy	.	2.ryy	2.ryy	2.r	.	2.ryy	2.ryy	2.ryy	.	2.ryy	.	2.ryy	.	4D\	-ni	.	2G/	-ni	.	4.f\	.	.
.	.	.	.	.	.	.	.	.	.	.	.	.	.	4BBn/	Do-	.	.	.	.	.	.	.
.	.	.	.	.	.	.	.	.	.	.	.	.	.	.	.	.	.	.	.	8d\	-mi-	.
.	.	.	.	.	.	.	.	.	.	.	.	.	.	8C/L	.	.	8G/L	Do-	.	8e\L	-ne	.
.	.	.	.	.	.	.	.	.	.	.	.	.	.	8F\J	.	.	8A/J	.	.	16A\L	.	.
.	.	.	.	.	.	.	.	.	.	.	.	.	.	.	.	.	.	.	.	16d\JJ	.	.
=69	=69	=69	=69	=69	=69	=69	=69	=69	=69	=69	=69	=69	=69	=69	=69	=69	=69	=69	=69	=69	=69	=69
2.ryy	.	2.ryy	2.ryy	4r	.	2.ryy	2.ryy	2.ryy	.	2.ryy	.	2.ryy	.	2E\	.	.	2G/	.	<	2c\	Do-	.
.	.	.	.	4g\	.	.	.	.	.	.	.	.	.	.	.	.	.	.	.	.	.	.
.	.	.	.	4g\	.	.	.	.	.	.	.	.	.	4D\	-mi-	.	4F/	-mi-	[[	4Bn\	-mi-	.
=70	=70	=70	=70	=70	=70	=70	=70	=70	=70	=70	=70	=70	=70	=70	=70	=70	=70	=70	=70	=70	=70	=70
2.ryy	.	2.ryy	2.ryy	2c\ 2g\	.	2.ryy	2.ryy	2.ryy	.	2.ryy	.	2.ryy	.	4.C/	-ni	.	2E/	-ni	.	2c\	-ni	.
.	.	.	.	.	.	.	.	.	.	.	.	.	.	(>16A\LL	in	.	.	.	.	.	.	.
.	.	.	.	.	.	.	.	.	.	.	.	.	.	16G\JJ	.	.	.	.	.	.	.	.
.	.	.	.	4r	.	.	.	.	.	.	.	.	.	16F\LL	.	.	4r	.	.	4r	.	.
.	.	.	.	.	.	.	.	.	.	.	.	.	.	16E\	.	.	.	.	.	.	.	.
.	.	.	.	.	.	.	.	.	.	.	.	.	.	16D\	.	.	.	.	.	.	.	.
.	.	.	.	.	.	.	.	.	.	.	.	.	.	16C\JJ)	.	.	.	.	.	.	.	.
=71	=71	=71	=71	=71	=71	=71	=71	=71	=71	=71	=71	=71	=71	=71	=71	=71	=71	=71	=71	=71	=71	=71
2.ryy	.	2.ryy	2.ryy	2.r	.	2.ryy	2.ryy	2.ryy	.	2.ryy	.	2.ryy	.	(<4BBn/	no-	.	4r	.	.	4r	.	.
.	.	.	.	.	.	.	.	.	.	.	.	.	.	4C/)	-mi-	.	4r	.	.	4r	.	.
.	.	.	.	.	.	.	.	.	.	.	.	.	.	4AA/	-ne	.	4c\	Do-	.	8e\L	Do-	.
.	.	.	.	.	.	.	.	.	.	.	.	.	.	.	.	.	.	.	.	8f#X\J	.	.
=72	=72	=72	=72	=72	=72	=72	=72	=72	=72	=72	=72	=72	=72	=72	=72	=72	=72	=72	=72	=72	=72	=72
2.ryy	.	2.ryy	2.ryy	2.r	.	2.ryy	2.ryy	2.ryy	.	2.ryy	.	2.ryy	.	2GG/	Do-	.	2E/	.	.	4.g\	.	.
.	.	.	.	.	.	.	.	.	.	.	.	.	.	.	.	.	.	.	.	8c\	.	.
.	.	.	.	.	.	.	.	.	.	.	.	.	.	4GG/	-mi-	.	8D/L	-mi-	.	8Bn\L	-mi-	.
.	.	.	.	.	.	.	.	.	.	.	.	.	.	.	.	.	(<16E/L	.	.	16c\L	.	.
.	.	.	.	.	.	.	.	.	.	.	.	.	.	.	.	.	16F/JJ	.	.	16d\JJ	.	.
=73	=73	=73	=73	=73	=73	=73	=73	=73	=73	=73	=73	=73	=73	=73	=73	=73	=73	=73	=73	=73	=73	=73
2.ryy	.	2.ryy	2.ryy	2.r	.	2.ryy	2.ryy	2.ryy	.	2.ryy	.	2.ryy	.	2C/	-ni	.	2E/)	-ni	.	(>4.c\	-ni	.
.	.	.	.	.	.	.	.	.	.	.	.	.	.	.	.	.	.	.	.	8Bn\)	.	.
.	.	.	.	.	.	.	.	.	.	.	.	.	.	4r	.	.	4r	.	.	(>16B-X\LL	Be-	.
.	.	.	.	.	.	.	.	.	.	.	.	.	.	.	.	.	.	.	.	16A\)	.	.
.	.	.	.	.	.	.	.	.	.	.	.	.	.	.	.	.	.	.	.	(>16G\	-ne-	.
.	.	.	.	.	.	.	.	.	.	.	.	.	.	.	.	.	.	.	.	16c\JJ	.	.
=74	=74	=74	=74	=74	=74	=74	=74	=74	=74	=74	=74	=74	=74	=74	=74	=74	=74	=74	=74	=74	=74	=74
2.ryy	.	2.ryy	2.ryy	[2.F/	.	2.ryy	2.ryy	2.ryy	.	2.ryy	.	2.ryy	.	2F\	Be-	.	2A\	Be-	.	8.c\L)	-di-	.
.	.	.	.	.	.	.	.	.	.	.	.	.	.	.	.	.	.	.	.	16F\Jk	.	.
.	.	.	.	.	.	.	.	.	.	.	.	.	.	.	.	.	.	.	.	4F/	-ctus	.
.	.	.	.	.	.	.	.	.	.	.	.	.	.	8.G\L	-ne-	.	8.B-X\L	-ne-	.	4r	.	.
.	.	.	.	.	.	.	.	.	.	.	.	.	.	16A\Jk	.	.	16c\Jk	.	.	.	.	.
=75	=75	=75	=75	=75	=75	=75	=75	=75	=75	=75	=75	=75	=75	=75	=75	=75	=75	=75	=75	=75	=75	=75
!!LO:LB:g=original
2.ryy	.	2.ryy	2.ryy	2F/]	.	2.ryy	2.ryy	2.ryy	.	2.ryy	.	2.ryy	.	8.A\L	-di-	.	8.c\L	-di-	.	4r	.	.
.	.	.	.	.	.	.	.	.	.	.	.	.	.	16G\Jk	.	.	16B-\Jk	.	.	.	.	.
.	.	.	.	.	.	.	.	.	.	.	.	.	.	4F\	-ctus	.	4A\	-ctus	.	4c\	Be-	.
.	.	.	.	4r	.	.	.	.	.	.	.	.	.	4F\	qui	.	4A\	qui	.	4f\	-ne-	.
=76	=76	=76	=76	=76	=76	=76	=76	=76	=76	=76	=76	=76	=76	=76	=76	=76	=76	=76	=76	=76	=76	=76
2.ryy	.	2.ryy	2.ryy	4r	.	2.ryy	2.ryy	2.ryy	.	2.ryy	.	2.ryy	.	4G\	ve-	.	4B-\	ve-	.	8f\L	-di-	.
.	.	.	.	.	.	.	.	.	.	.	.	.	.	.	.	.	.	.	.	8e\J	.	.
.	.	.	.	4r	.	.	.	.	.	.	.	.	.	4G\	-nit	.	4B-\	-nit	.	4e\	-ctus	.
.	.	.	.	(<8F/L	.	.	.	.	.	.	.	.	.	4F\	in	.	4A\	in	.	4r	.	.
.	.	.	.	8A/J	.	.	.	.	.	.	.	.	.	.	.	.	.	.	.	.	.	.
=77	=77	=77	=77	=77	=77	=77	=77	=77	=77	=77	=77	=77	=77	=77	=77	=77	=77	=77	=77	=77	=77	=77
!	!	!	!	!	!	!	!	!	!	!	!	!	!	!LO:TX:a:t=P:ozdobnik przekreślony:problem	!	!	!LO:TX:a:t=P:ozdobnik przekreślony:problem	!	!	!	!	!
2.ryy	.	2.ryy	2.ryy	8.c/L)	.	2.ryy	2.ryy	2.ryy	.	2.ryy	.	2.ryy	.	(>4.ES\	no-	.	(>4.GS\	no-	.	2.r	.	.
.	.	.	.	16C/Jk	.	.	.	.	.	.	.	.	.	.	.	.	.	.	.	.	.	.
.	.	.	.	4C/	.	.	.	.	.	.	.	.	.	.	.	.	.	.	.	.	.	.
.	.	.	.	.	.	.	.	.	.	.	.	.	.	8F\)	.	.	8A\)	.	.	.	.	.
.	.	.	.	4r	.	.	.	.	.	.	.	.	.	8G\	-mi-	.	8B-\	-mi-	.	.	.	.
.	.	.	.	.	.	.	.	.	.	.	.	.	.	8E\	-ne	.	8c\	-ne	.	.	.	.
=78	=78	=78	=78	=78	=78	=78	=78	=78	=78	=78	=78	=78	=78	=78	=78	=78	=78	=78	=78	=78	=78	=78
2.ryy	.	2.ryy	2.ryy	4r	.	2.ryy	2.ryy	2.ryy	.	2.ryy	.	2.ryy	.	8.F\	Do-	.	8.B-\	Do-	.	[2.c\	Be-	.
.	.	.	.	.	.	.	.	.	.	.	.	.	.	16F\	-mi-	.	16A\	-mi-	.	.	.	.
.	.	.	.	4r	.	.	.	.	.	.	.	.	.	4F\	-ni	.	4A\	-ni	.	.	.	.
.	.	.	.	8.c/L 8.g/	.	.	.	.	.	.	.	.	.	4r	.	.	4r	.	.	.	.	.
.	.	.	.	16A/Jk 16f/	.	.	.	.	.	.	.	.	.	.	.	.	.	.	.	.	.	.
=79	=79	=79	=79	=79	=79	=79	=79	=79	=79	=79	=79	=79	=79	=79	=79	=79	=79	=79	=79	=79	=79	=79
2.ryy	.	2.ryy	2.ryy	8.A/L 8.f/	.	2.ryy	2.ryy	2.ryy	.	2.ryy	.	2.ryy	.	4r	.	.	4r	.	.	4.c\]	.	.
.	.	.	.	16c/Jk	.	.	.	.	.	.	.	.	.	.	.	.	.	.	.	.	.	.
.	.	.	.	8F/ 8f/	.	.	.	.	.	.	.	.	.	4F\	Be-	.	4A\	Be-	.	.	.	.
.	.	.	.	8r	.	.	.	.	.	.	.	.	.	.	.	.	.	.	.	8d\	.	.
.	.	.	.	4r	.	.	.	.	.	.	.	.	.	4A\	-ne-	.	4c\	-ne-	.	(>8e\L	-ne-	.
.	.	.	.	.	.	.	.	.	.	.	.	.	.	.	.	.	.	.	.	8f\J)	.	.
=80	=80	=80	=80	=80	=80	=80	=80	=80	=80	=80	=80	=80	=80	=80	=80	=80	=80	=80	=80	=80	=80	=80
!	!	!	!	!	!LO:DY:a	!	!	!	!	!	!	!	!	!	!	!	!	!	!	!	!	!
2.ryy	.	2.ryy	2.ryy	[>2.f\	p	2.ryy	2.ryy	2.ryy	.	2.ryy	.	2.ryy	.	4B-\	-di-	.	4d\	-di-	.	8f\L	-di-	.
.	.	.	.	.	.	.	.	.	.	.	.	.	.	.	.	.	.	.	.	8d\J	.	.
.	.	.	.	.	.	.	.	.	.	.	.	.	.	4BB-/	-ctus	.	4d\	-ctus	.	(>4.B-\	-ctus	.
.	.	.	.	.	.	.	.	.	.	.	.	.	.	4r	.	.	4r	.	.	.	.	.
.	.	.	.	.	.	.	.	.	.	.	.	.	.	.	.	.	.	.	.	16c\LL	qui	.
.	.	.	.	.	.	.	.	.	.	.	.	.	.	.	.	.	.	.	.	16d\JJ)	.	.
=81	=81	=81	=81	=81	=81	=81	=81	=81	=81	=81	=81	=81	=81	=81	=81	=81	=81	=81	=81	=81	=81	=81
2.ryy	.	2.ryy	2.ryy	2.f\_	.	2.ryy	2.ryy	2.ryy	.	2.ryy	.	2.ryy	.	4r	.	.	4r	.	.	8c\L	ve-	.
.	.	.	.	.	.	.	.	.	.	.	.	.	.	.	.	.	.	.	.	8A\J	.	.
.	.	.	.	.	.	.	.	.	.	.	.	.	.	4F\	Be-	.	4A\	Be-	.	4F/	-nit	.
.	.	.	.	.	.	.	.	.	.	.	.	.	.	4A\	-ne-	.	4c\	-ne-	.	4f\	in	.
=82	=82	=82	=82	=82	=82	=82	=82	=82	=82	=82	=82	=82	=82	=82	=82	=82	=82	=82	=82	=82	=82	=82
2.ryy	.	2.ryy	2.ryy	2f\]	.	2.ryy	2.ryy	2.ryy	.	2.ryy	.	2.ryy	.	4B-\	-di-	.	4d\	-di-	.	(>4.f\	no-	.
.	.	.	.	.	.	.	.	.	.	.	.	.	.	4BB-/	-ctus	.	4.d\	-ctus	.	.	.	.
.	.	.	.	.	.	.	.	.	.	.	.	.	.	.	.	.	.	.	.	8d\)	.	.
.	.	.	.	4r	.	.	.	.	.	.	.	.	.	4BB-/	qui	.	.	.	.	8B-\	-mi-	.
.	.	.	.	.	.	.	.	.	.	.	.	.	.	.	.	.	8B-\	qui	.	8G\	-ne	.
=83	=83	=83	=83	=83	=83	=83	=83	=83	=83	=83	=83	=83	=83	=83	=83	=83	=83	=83	=83	=83	=83	=83
2.ryy	.	2.ryy	2.ryy	2.r	.	2.ryy	2.ryy	2.ryy	.	2.ryy	.	2.ryy	.	2.C/	ve-	.	4A\	ve-	.	(>8F/	Do-	.
.	.	.	.	.	.	.	.	.	.	.	.	.	.	.	.	.	.	.	.	8c\L	.	.
.	.	.	.	.	.	.	.	.	.	.	.	.	.	.	.	.	8B-\L	.	.	8d\	.	.
.	.	.	.	.	.	.	.	.	.	.	.	.	.	.	.	.	8A\	.	.	8c\	.	.
.	.	.	.	.	.	.	.	.	.	.	.	.	.	.	.	.	8G\	.	.	8B-\	.	.
.	.	.	.	.	.	.	.	.	.	.	.	.	.	.	.	.	[8F\J	.	.	8A\J)	.	.
=84	=84	=84	=84	=84	=84	=84	=84	=84	=84	=84	=84	=84	=84	=84	=84	=84	=84	=84	=84	=84	=84	=84
2.ryy	.	2.ryy	2.ryy	2.C/ 2.c/	.	2.ryy	2.ryy	2.ryy	.	2.ryy	.	2.ryy	.	2.C/	.	.	8F/L]	.	.	(>4G\	.	.
.	.	.	.	.	.	.	.	.	.	.	.	.	.	.	.	.	(>8E/	.	.	.	.	.
.	.	.	.	.	.	.	.	.	.	.	.	.	.	.	.	.	8F/	.	.	8A\L	.	.
.	.	.	.	.	.	.	.	.	.	.	.	.	.	.	.	.	8G/	.	.	8B-\	.	.
.	.	.	.	.	.	.	.	.	.	.	.	.	.	.	.	.	8A\	.	.	8c\	-mi-	.
.	.	.	.	.	.	.	.	.	.	.	.	.	.	.	.	.	8G/J)	.	.	8B-\J)	.	.
=85	=85	=85	=85	=85	=85	=85	=85	=85	=85	=85	=85	=85	=85	=85	=85	=85	=85	=85	=85	=85	=85	=85
!!LO:PB:g=original
*k[bn en an]	*	*	*	*	*	*k[bn en an]	*k[bn en an]	*k[bn en an]	*	*k[bn en an]	*	*k[bn en an]	*	*k[bn en an]	*	*	*k[bn en an]	*	*	*k[bn en an]	*	*
!	!	!	!	!	!	!	!	!	!	!	!	!	!	!LO:SIC:s=nit:v	!	!	!LO:SIC:s=nit:v	!	!	!LO:TX:a:t=P:dziwny układ niepotrzebnych kasowników we wszystkich głosach oprócz kotłów, clarino i rogów:problem	!	!
2.r	.	2.r	2.r	2.r	.	2.r	2.r	2.r	.	2.r	.	2.r	.	2D\	-ni	.	2F/	-ni	.	2A\	-ni	.
.	.	.	.	.	.	.	.	.	.	.	.	.	.	4C/	in	.	4F#X/	in	.	4A\	in	.
=86	=86	=86	=86	=86	=86	=86	=86	=86	=86	=86	=86	=86	=86	=86	=86	=86	=86	=86	=86	=86	=86	=86
2.r	.	2.r	2.r	2.r	.	2.r	2.r	2.r	.	2.r	.	2.r	.	8.BB-/	no-	.	8.G/	no-	.	8.d\	no-	.
.	.	.	.	.	.	.	.	.	.	.	.	.	.	16BB-/	-mi-	.	16G/	-mi-	.	16d\	-mi-	.
.	.	.	.	.	.	.	.	.	.	.	.	.	.	4BB-/	-ne	.	4G/	-ne	.	4d\	-ne	.
.	.	.	.	.	.	.	.	.	.	.	.	.	.	4BB-/	(in	.	4E/	(in	.	4G/	in	.
=87	=87	=87	=87	=87	=87	=87	=87	=87	=87	=87	=87	=87	=87	=87	=87	=87	=87	=87	=87	=87	=87	=87
2.r	.	2.r	2.r	2.r	.	2.r	2.r	2.r	.	2.r	.	2.r	.	4.AA/	no-	.	4.F/	no-	.	4.c\	no-	.
.	.	.	.	.	.	.	.	.	.	.	.	.	.	8AA/	-mi-	.	8F/	-mi-	.	8c\	-mi-	.
.	.	.	.	.	.	.	.	.	.	.	.	.	.	4BB-/	-ne)	.	4F/	-ne)	.	4d\	-ne	.
=88	=88	=88	=88	=88	=88	=88	=88	=88	=88	=88	=88	=88	=88	=88	=88	=88	=88	=88	=88	=88	=88	=88
!	!	!	!	!	!	!	!	!	!	!	!	!	!	!LO:N:vis=2.	!	!	!	!	!	!	!	!
2.r	.	2.r	2.r	4r	.	2.r	2.r	2.r	.	2.r	.	2.r	.	2C/	Do-	.	4F/	Do-	.	2G/	Do-	.
.	.	.	.	8.r	.	.	.	.	.	.	.	.	.	.	.	.	8E/L	.	.	.	.	.
.	.	.	.	.	.	.	.	.	.	.	.	.	.	.	.	.	8D/J	.	.	.	.	.
.	.	.	.	16c\KL 16g\	.	.	.	.	.	.	.	.	.	.	.	.	.	.	.	.	.	.
.	.	.	.	8.c\ 8.g\	.	.	.	.	.	.	.	.	.	4C/	-mi-	.	4E/	-mi-	.	4G/	-mi-	.
.	.	.	.	16c\Jk 16g\	.	.	.	.	.	.	.	.	.	.	.	.	.	.	.	.	.	.
=89||	=89||	=89||	=89||	=89||	=89||	=89||	=89||	=89||	=89||	=89||	=89||	=89||	=89||	=89||	=89||	=89||	=89||	=89||	=89||	=89||	=89||	=89||
!LO:TX:a:i:t=piu  Allegro	!	!	!	!	!	!	!	!	!	!	!	!LO:TX:a:Bi:t=piu Allegro.	!	!	!	!	!	!	!	!	!	!
2.r	.	2.r	2.r	4A/ 4f/	.	2.r	2.r	2.r	.	2.r	.	8r	.	2F\	-ni	.	2F/	-ni	.	8A\	-ni	.
.	.	.	.	.	.	.	.	.	.	.	.	8f\	f	.	.	.	.	.	.	8f\	o-	.
.	.	.	.	4r	.	.	.	.	.	.	.	4f\	.	.	.	.	.	.	.	4f\	-san-	.
.	.	.	.	4r	.	.	.	.	.	.	.	4f\	.	4r	.	.	4r	.	.	4f\	-na	.
=90	=90	=90	=90	=90	=90	=90	=90	=90	=90	=90	=90	=90	=90	=90	=90	=90	=90	=90	=90	=90	=90	=90
!	!	!	!	!	!	!	!	!	!	!	!	!	!	!LO:TX:a:Bi:t=Tutti	!	!	!LO:TX:a:Bi:t=Tutti	!	!	!	!	!
8r	.	2.r	2.r	2.r	.	2.r	2.r	2.r	.	2.r	.	8f\L	.	8r	.	.	2.r	.	.	8f\	in	.
8G\	.	.	.	.	.	.	.	.	.	.	.	8d\J	.	8G\	o-	.	.	.	.	8d\	ex-	.
!	!	!	!	!	!	!	!	!	!	!	!	!	!	!	!	!LO:DY:b	!	!	!	!	!	!
4G\	.	.	.	.	.	.	.	.	.	.	.	(>4.Bn\	.	4G\	-san-	f	.	.	.	4.Bn\	-cel-	.
4G\	.	.	.	.	.	.	.	.	.	.	.	.	.	4G\	-na	.	.	.	.	.	.	.
.	.	.	.	.	.	.	.	.	.	.	.	16c\LL	.	.	.	.	.	.	.	16c\LL	-sis	.
.	.	.	.	.	.	.	.	.	.	.	.	16d\JJ)	.	.	.	.	.	.	.	16d\JJ	.	.
=91	=91	=91	=91	=91	=91	=91	=91	=91	=91	=91	=91	=91	=91	=91	=91	=91	=91	=91	=91	=91	=91	=91
8G\L	.	2.r	2.r	2.r	.	2.r	2.r	2.r	.	8r	.	8e\L	.	8G\	in	.	8r	.	.	8e\	in	.
8E\J	.	.	.	.	.	.	.	.	.	8c\	.	8c\J	.	8E\	ex-	.	8c\	o-	.	8c\	ex-	.
!	!	!	!	!	!	!	!	!	!	!	!	!	!	!	!	!	!	!	!	!LO:N:vis=4	!	!
4.C/	.	.	.	.	.	.	.	.	.	4c\	.	4.e\	.	4.C/	-cel-	.	4c\	-san-	.	4.e\	-cel-	.
.	.	.	.	.	.	.	.	.	.	8c\L	.	.	.	.	.	.	8c\L	-na	.	.	.	.
16D\LL	.	.	.	.	.	.	.	.	.	8Bn\J	.	16f\LL	.	16D\LL	-sis	.	8Bn\J	.	.	16f\LL	-sis	.
16E\JJ	.	.	.	.	.	.	.	.	.	.	.	16g\JJ	.	16E\JJ	.	.	.	.	.	16g\JJ	.	.
=92	=92	=92	=92	=92	=92	=92	=92	=92	=92	=92	=92	=92	=92	=92	=92	=92	=92	=92	=92	=92	=92	=92
8F\L	.	2.r	2.r	2.r	.	2.r	2.r	2.r	.	8A\L	.	4.f\	.	8F\	(in	.	8A\	in	.	4.f\	(in	.
8F\J	.	.	.	.	.	.	.	.	.	8A\J	.	.	.	8F\	ex-	.	8A\	ex-	.	.	.	.
4.F\	.	.	.	.	.	.	.	.	.	2A\	.	.	.	4F\	-cel-	.	4A\	-cel-	.	.	.	.
.	.	.	.	.	.	.	.	.	.	.	.	8e\L	.	.	.	.	.	.	.	8e\	ex-	.
.	.	.	.	.	.	.	.	.	.	.	.	8d\	.	4F#X\	-sis)	.	4A\	-sis	.	8d\	-cel-	.
8F#X\	.	.	.	.	.	.	.	.	.	.	.	[8c\J	.	.	.	.	.	.	.	8c\	-sis)	.
=93	=93	=93	=93	=93	=93	=93	=93	=93	=93	=93	=93	=93	=93	=93	=93	=93	=93	=93	=93	=93	=93	=93
4G\	.	4r	4r	4r	.	2.r	2.r	2.r	.	4G\	.	8c\L]	.	4G\	Deo.	.	4G/	De-	.	8c\L	De-	.
.	.	.	.	.	.	.	.	.	.	.	.	8Bn\J	.	.	.	.	.	.	.	8Bn\J	.	.
4G\	.	8.r	8.r	8.r	.	.	.	.	.	4G\	.	4B\	.	4G\	o	.	4G/	-o	.	4B\	-o	p
.	.	16GG/	16G/ 16g/	16g\	.	.	.	.	.	.	.	.	.	.	.	.	.	.	.	.	.	.
8r	.	4GG/	4G/ 4g/	4g\	.	.	.	.	.	8r	.	8r	.	8r	.	.	8r	.	.	8r	.	.
8BBn/	.	.	.	.	.	.	.	.	.	8G\	.	8f\	.	8BBn/	o-	.	8G/	o-	.	8f\	o-	.
=94	=94	=94	=94	=94	=94	=94	=94	=94	=94	=94	=94	=94	=94	=94	=94	=94	=94	=94	=94	=94	=94	=94
4C/	.	2.r	2.r	2.r	.	2.r	2.r	2.r	.	8G\L	.	8e\L	.	4C/	-san-	.	8G/	-san-	.	8e\	-san-	.
.	.	.	.	.	.	.	.	.	.	8E\J	.	8c\J	.	.	.	.	8E/	-na	.	8c\	-na	.
4C/	.	.	.	.	.	.	.	.	.	4.E\	.	4.G/	.	4C/	-na	.	4.E/	in	.	4.G/	in	.
8C/L	.	.	.	.	.	.	.	.	.	.	.	.	.	8C/	in	.	.	.	.	.	.	.
8E/J	.	.	.	.	.	.	.	.	.	8G\	.	8c\	.	8E\	ex-	.	8G/	ex-	.	8c\	ex-	.
=95	=95	=95	=95	=95	=95	=95	=95	=95	=95	=95	=95	=95	=95	=95	=95	=95	=95	=95	=95	=95	=95	=95
8D\L	.	2.r	2.r	2.r	.	2.r	2.r	2.r	.	8F\L	.	8Bn\L	.	8D\	-cel-	.	8F/	-cel-	.	8Bn\	-cel-	.
8E\J	.	.	.	.	.	.	.	.	.	8G\J	.	8c\J	.	8E\	-sis	.	8G/	-sis	.	8c\	-sis	.
4F\	.	.	.	.	.	.	.	.	.	4A\	.	4.d\	.	(>4F\	De-	.	(>4A/	De-	.	(>4.d\	De-	.
4G\	.	.	.	.	.	.	.	.	.	8Bn\L	.	.	.	4G\)	.	.	8Bn\L	.	.	.	.	.
.	.	.	.	.	.	.	.	.	.	8c\J	.	8e\	.	.	.	.	8c\J)	.	.	8e\)	.	.
=96	=96	=96	=96	=96	=96	=96	=96	=96	=96	=96	=96	=96	=96	=96	=96	=96	=96	=96	=96	=96	=96	=96
2C/	.	8r	8r	4r	.	2.r	2.r	2.r	.	2c\	.	2e\	.	2C/	-o	.	2c\	-o	.	2e\	-o	.
*	*	*Xtremolo	*	*	*	*	*	*	*	*	*	*	*	*	*	*	*	*	*	*	*	*
.	.	16C/LL	16e/LL 16cc/	.	.	.	.	.	.	.	.	.	.	.	.	.	.	.	.	.	.	.
.	.	16C/JJ	16e/JJ 16cc/	.	.	.	.	.	.	.	.	.	.	.	.	.	.	.	.	.	.	.
.	.	8C/L	8e/L 8cc/	8r	.	.	.	.	.	.	.	.	.	.	.	.	.	.	.	.	.	.
.	.	8C/	8e/ 8cc/	8g\L	.	.	.	.	.	.	.	.	.	.	.	.	.	.	.	.	.	.
8r	.	8GG/	8g/ 8dd/	8g\	.	.	.	.	.	8r	.	8r	.	8r	.	.	8r	.	.	8r	.	.
8BBn/	.	8GG/J	8g/J 8dd/	8g\J	.	.	.	.	.	8G\	.	8f\	.	8BBn/	Ho-	.	8G/	Ho-	.	8f\	o-	.
=97	=97	=97	=97	=97	=97	=97	=97	=97	=97	=97	=97	=97	=97	=97	=97	=97	=97	=97	=97	=97	=97	=97
4C/	.	4C/	4e/ 4cc/	4c\ 4g\	.	2.r	2.r	2.r	.	8G\L	.	8e\L	.	4C/	-san-	.	8G/	-san-	.	8e\	-san-	.
.	.	.	.	.	.	.	.	.	.	8E\J	.	8c\J	.	.	.	.	8E/	-na	.	8c\	-na	.
4C/	.	4r	4r	4r	.	.	.	.	.	4.E\	.	4.G/	.	4C/	-na	.	4.E/	in	.	4.G/	in	.
8C/L	.	4r	4r	4r	.	.	.	.	.	.	.	.	.	8C/	in	.	.	.	.	.	.	.
8E/J	.	.	.	.	.	.	.	.	.	8G\	.	8c\	.	8E/	ex-	.	8G/	ex-	.	8c\	ex-	.
=98	=98	=98	=98	=98	=98	=98	=98	=98	=98	=98	=98	=98	=98	=98	=98	=98	=98	=98	=98	=98	=98	=98
!!LO:PB:g=original
!	!	!	!	!	!	!	!	!	!	!	!	!	!	!	!	!	!	!	!	!LO:TX:a:t=P:bemol przy kluczu tylko w trzech górnych głosach:problem	!	!
*	*	*	*	*	*	*	*	*	*	*	*	*	*	*k[b-]	*	*	*k[b-]	*	*	*k[b-]	*	*
8D\L	.	2.r	2.r	2.r	.	2.r	2.r	2.r	.	8F\L	.	8Bn\L	.	8D\	-cel-	.	8F/	-cel-	.	8Bn\	-cel-	<
8E\J	.	.	.	.	.	.	.	.	.	8G\J	.	8c\J	.	8E\	-sis	.	8G/	-sis	.	8c\	-sis	.
4F\	.	.	.	.	.	.	.	.	.	4A\	.	4.d\	.	(>4F\	De-	.	4A\	De-	.	4.d\	De-	.
4G\	.	.	.	.	.	.	.	.	.	8Bn\L	.	.	.	4G\)	.	.	(>8Bn\L	.	.	.	.	.
.	.	.	.	.	.	.	.	.	.	8c\J	.	8e\	.	.	.	.	8c\J	.	.	8e\	-o	.
=99	=99	=99	=99	=99	=99	=99	=99	=99	=99	=99	=99	=99	=99	=99	=99	=99	=99	=99	=99	=99	=99	=99
2C/	.	8r	8r	2.r	.	2C/	2.c\	2.e\	.	2c\	.	2e\	.	2C/	-o	.	2c\)	-o	.	2e\	.	[
.	.	16C/LL	16e/LL 16cc/	.	.	.	.	.	.	.	.	.	.	.	.	.	.	.	.	.	.	.
.	.	16C/JJ	16e/JJ 16cc/	.	.	.	.	.	.	.	.	.	.	.	.	.	.	.	.	.	.	.
*	*	*tremolo	*tremolo	*	*	*	*	*	*	*	*	*	*	*	*	*	*	*	*	*	*	*
.	.	8C/L	8e/L 8cc/	.	.	.	.	.	.	.	.	.	.	.	.	.	.	.	.	.	.	.
.	.	8C/	8e/ 8cc/	.	.	.	.	.	.	.	.	.	.	.	.	.	.	.	.	.	.	.
8E\L	.	8C/	8e/ 8cc/	.	.	8E\L	.	.	.	8e\L	.	8e\L	.	8E\	in	.	8e\	in	.	8e\	in	.
8C\J	.	8C/J	8e/J 8cc/	.	.	8C/J	.	.	.	8c\J	.	8c\J	.	8C/	ex-	.	8c\	ex-	.	8c\	ex-	.
=100	=100	=100	=100	=100	=100	=100	=100	=100	=100	=100	=100	=100	=100	=100	=100	=100	=100	=100	=100	=100	=100	=100
2G\	.	16GG/LL	2g\ 2dd\	2.g\	.	2G\	2B\	2d\	.	2G\	.	2g\	.	2G\	-cel-	.	2G\ 2g\	-cel-	.	2g\	-cel-	.
.	.	16GG/	.	.	.	.	.	.	.	.	.	.	.	.	.	.	.	.	.	.	.	.
.	.	16GG/	.	.	.	.	.	.	.	.	.	.	.	.	.	.	.	.	.	.	.	.
.	.	16GG/	.	.	.	.	.	.	.	.	.	.	.	.	.	.	.	.	.	.	.	.
.	.	16GG/	.	.	.	.	.	.	.	.	.	.	.	.	.	.	.	.	.	.	.	.
.	.	16GG/	.	.	.	.	.	.	.	.	.	.	.	.	.	.	.	.	.	.	.	.
.	.	16GG/	.	.	.	.	.	.	.	.	.	.	.	.	.	.	.	.	.	.	.	.
.	.	16GG/JJ	.	.	.	.	.	.	.	.	.	.	.	.	.	.	.	.	.	.	.	.
8E\L	.	16C/LL	4cc\ 4ee\	.	.	8E\L	4c\	4e\	.	8e\L	.	8e\L	.	8E\L	-sis	.	(>8e\L	-sis	.	8e\L	-sis	.
.	.	16C/	.	.	.	.	.	.	.	.	.	.	.	.	.	.	.	.	.	.	.	.
8C\J	.	16C/	.	.	.	8C\J	.	.	.	[8c\J	.	8c\J	.	8C\J	.	.	8c\J	.	.	8c\J	.	.
.	.	16C/JJ	.	.	.	.	.	.	.	.	.	.	.	.	.	.	.	.	.	.	.	.
=101	=101	=101	=101	=101	=101	=101	=101	=101	=101	=101	=101	=101	=101	=101	=101	=101	=101	=101	=101	=101	=101	=101
2.GG/	.	16GG/LL	2.g\ 2.dd\	2.g\	.	2.GG/	4c\	2.d\	.	4c\]	.	2.d\	.	2.GG\ 2.G\	De-	.	4c\)	.	.	2.d\	De-	.
.	.	16GG/	.	.	.	.	.	.	.	.	.	.	.	.	.	.	.	.	.	.	.	.
.	.	16GG/	.	.	.	.	.	.	.	.	.	.	.	.	.	.	.	.	.	.	.	.
.	.	16GG/	.	.	.	.	.	.	.	.	.	.	.	.	.	.	.	.	.	.	.	.
!	!	!	!	!	!	!	!LO:SIC:s=8B-:v	!	!	!LO:SIC:s=8B-:v	!	!	!	!	!	!	!	!	!	!	!	!
.	.	16GG/	.	.	.	.	8B\L	.	.	8B\L	.	.	.	.	.	.	8B-\L	De-	.	.	.	.
.	.	16GG/	.	.	.	.	.	.	.	.	.	.	.	.	.	.	.	.	.	.	.	.
.	.	16GG/	.	.	.	.	8A\J	.	.	8A\J	.	.	.	.	.	.	8A\J	.	.	.	.	.
.	.	16GG/	.	.	.	.	.	.	.	.	.	.	.	.	.	.	.	.	.	.	.	.
!	!	!	!	!	!	!	!LO:SIC:s=4B-:v	!	!	!LO:SIC:s=4B-:v	!	!	!	!	!	!	!	!	!	!	!	!
.	.	16GG/	.	.	.	.	4B\	.	.	4B\	.	.	.	.	.	.	4B-\	.	.	.	.	.
.	.	16GG/	.	.	.	.	.	.	.	.	.	.	.	.	.	.	.	.	.	.	.	.
.	.	16GG/	.	.	.	.	.	.	.	.	.	.	.	.	.	.	.	.	.	.	.	.
.	.	16GG/JJ	.	.	.	.	.	.	.	.	.	.	.	.	.	.	.	.	.	.	.	.
=102	=102	=102	=102	=102	=102	=102	=102	=102	=102	=102	=102	=102	=102	=102	=102	=102	=102	=102	=102	=102	=102	=102
!	!	!	!	!	!	!	!	!	!	!	!	!	!	!	!	!	!	!	!	!LO:N:vis=2.	!	!
2C/	.	2C/	2e\ 2cc\	2c\ 2g\	.	2C/	2c\	2c\	.	2c\	.	2c\	.	2C/	-o	.	2c\	-o	.	2c\	-o	.
4r	.	4r	4r	4r	.	4r	4r	4r	.	4r	.	4r	.	4r	.	.	4r	.	.	4r	.	.
==	==	==	==	==	==	==	==	==	==	==	==	==	==	==	==	==	==	==	==	==	==	==
*-	*-	*-	*-	*-	*-	*-	*-	*-	*-	*-	*-	*-	*-	*-	*-	*-	*-	*-	*-	*-	*-	*-
!!!system-decoration: [(s1,s2,s3,s4,s5)][(s6,s7,s8)][(s9,s10,s11,s12)]
!!!RDF**kern: > = above
!!!RDF**kern: < = below
!!!AIN: 1 bass 2 cello 1 clars 1 cor 3 empty 2 fagot 2 tenor 1 timpa 1 tromp
!!!ENC: Andrzej Borzym
!!!END: 2020-02-10
!!!ENC: Marta Lawrence
!!!END: 2020-03-11
